<?xml version="1.0" encoding="UTF-8"?>
<map version="1.10" tiledversion="1.12.1" orientation="orthogonal" renderorder="right-down" width="30" height="20" tilewidth="64" tileheight="64" infinite="0" nextlayerid="8" nextobjectid="49">
 <tileset firstgid="1" source="../tilesets/world_tileset.tsx"/>
 <tileset firstgid="211" source="../tilesets/Objects.tsx"/>
 <tileset firstgid="270" source="../tilesets/Floor.tsx"/>
 <layer id="1" name="Ground" width="30" height="20">
  <data encoding="csv">
296,296,296,296,296,296,296,296,296,296,296,296,309,309,309,309,309,309,296,296,296,296,296,296,296,296,296,296,296,296,
296,296,296,296,296,296,296,296,296,296,296,296,309,309,309,309,309,309,296,296,296,296,296,296,296,296,296,296,296,296,
296,296,296,296,296,296,296,296,296,296,296,296,309,309,309,309,309,309,296,296,296,296,296,296,296,296,296,296,296,296,
296,296,296,296,296,296,296,296,296,296,296,296,309,309,309,309,309,309,296,296,296,296,296,296,296,296,296,296,296,296,
296,296,296,296,296,296,296,296,296,296,296,296,309,309,309,309,309,309,296,296,296,296,296,296,296,296,296,296,296,296,
296,296,296,296,296,296,296,296,296,296,296,296,309,309,309,309,309,309,296,296,296,296,296,296,296,296,296,296,296,296,
296,296,296,296,296,296,296,296,296,296,296,296,309,309,309,309,309,309,296,296,296,296,296,296,296,296,296,296,296,296,
296,296,296,296,296,296,296,296,296,296,296,296,309,309,309,309,309,309,296,296,296,296,296,296,296,296,296,296,296,296,
296,296,296,296,296,296,296,296,296,296,296,296,309,309,309,309,309,309,296,296,296,296,296,296,296,296,296,296,296,296,
296,296,296,296,296,296,296,296,296,296,296,296,309,309,309,309,309,309,296,296,296,296,296,296,296,296,296,296,296,296,
296,296,296,296,296,296,296,296,296,296,296,296,309,309,309,309,309,309,296,296,296,296,296,296,296,296,296,296,296,296,
296,296,296,296,296,296,296,296,296,296,296,296,309,309,309,309,309,309,296,296,296,296,296,296,296,296,296,296,296,296,
296,296,296,296,296,296,296,296,296,296,296,296,309,309,309,309,309,309,296,296,296,296,296,296,296,296,296,296,296,296,
296,296,296,296,296,296,296,296,296,296,296,296,309,309,309,309,309,309,296,296,296,296,296,296,296,296,296,296,296,296,
296,296,296,296,296,296,296,296,296,296,296,296,309,309,309,309,309,309,296,296,296,296,296,296,296,296,296,296,296,296,
296,296,296,296,296,296,296,296,296,296,296,296,309,309,309,309,309,309,296,296,296,296,296,296,296,296,296,296,296,296,
296,296,296,296,296,296,296,296,296,296,296,296,309,309,309,309,309,309,296,296,296,296,296,296,296,296,296,296,296,296,
296,296,296,296,296,296,296,296,296,296,296,296,309,309,309,309,309,309,296,296,296,296,296,296,296,296,296,296,296,296,
296,296,296,296,296,296,296,296,296,296,296,296,309,309,309,309,309,309,296,296,296,296,296,296,296,296,296,296,296,296,
296,296,296,296,296,296,296,296,296,296,296,296,309,309,309,309,309,309,296,296,296,296,296,296,296,296,296,296,296,296
</data>
 </layer>
 <objectgroup id="2" name="Entities">
  <object id="1" name="Player" x="962.125" y="1242.15">
   <point/>
  </object>
  <object id="3" name="Enemy" x="668.633" y="590.616">
   <point/>
  </object>
 </objectgroup>
 <objectgroup id="5" name="Transitions">
  <object id="8" x="901.727" y="1262.15" width="123.94" height="19.5327">
   <properties>
    <property name="pos" value="4789, 1550"/>
    <property name="target" value="world"/>
   </properties>
  </object>
 </objectgroup>
 <objectgroup id="6" name="Collisions">
  <object id="4" x="-2.57623" y="1106.93" width="896.425" height="184.866"/>
  <object id="9" x="1021.48" y="1098.48" width="896.425" height="184.866"/>
  <object id="13" x="509.363" y="1280.29" width="896.425" height="184.866"/>
 </objectgroup>
 <objectgroup id="4" name="Objects1">
  <object id="10" gid="230" x="1018.18" y="1291.39" width="927.273" height="197.939"/>
  <object id="12" gid="230" x="-3.03044" y="1298" width="927.273" height="197.939"/>
  <object id="14" gid="242" x="80.4848" y="390.485" width="200" height="178.5"/>
  <object id="15" gid="242" x="78" y="564.75" width="200" height="178.5"/>
  <object id="21" gid="242" x="75.2424" y="741.618" width="200" height="178.5"/>
  <object id="22" gid="242" x="72.7576" y="921.882" width="200" height="178.5"/>
  <object id="23" gid="230" x="1149" y="908" width="52" height="356"/>
  <object id="24" gid="230" x="1151" y="368" width="52" height="390"/>
  <object id="40" gid="243" x="141.205" y="256.235" width="216.333" height="202.667"/>
  <object id="41" gid="244" x="38.2045" y="179.235" width="139" height="212"/>
  <object id="42" gid="245" x="349.205" y="161.235" width="75" height="154"/>
  <object id="43" gid="245" x="93.7045" y="676.235" width="75" height="154"/>
  <object id="44" gid="245" x="100.705" y="502.235" width="75" height="154"/>
  <object id="45" gid="245" x="102.705" y="326.235" width="75" height="154"/>
  <object id="46" gid="245" x="91.7045" y="853.235" width="75" height="154"/>
  <object id="47" gid="243" x="369.705" y="251.401" width="216.333" height="202.667"/>
  <object id="48" gid="245" x="577.705" y="156.401" width="75" height="154"/>
 </objectgroup>
 <objectgroup id="3" name="Objects2"/>
</map>
