<?xml version="1.0" encoding="UTF-8"?>
<map version="1.10" tiledversion="1.12.1" orientation="orthogonal" renderorder="right-down" width="120" height="70" tilewidth="64" tileheight="64" infinite="0" nextlayerid="10" nextobjectid="2182">
 <tileset firstgid="1" source="../tilesets/world_tileset.tsx"/>
 <tileset firstgid="211" source="../tilesets/Objects.tsx"/>
 <tileset firstgid="272" source="../tilesets/Wall.tsx"/>
 <tileset firstgid="528" source="../tilesets/new_tileset.tsx"/>
 <tileset firstgid="738" source="../tilesets/with water.tsx"/>
 <tileset firstgid="948" source="../tilesets/city.tsx"/>
 <layer id="1" name="Ground" width="120" height="70">
  <data encoding="csv">
545,545,545,545,545,545,545,545,545,545,545,545,545,545,545,545,545,545,545,545,545,545,545,545,545,545,545,545,545,545,545,545,545,545,545,545,545,545,779,779,779,779,779,779,779,779,779,779,779,779,779,779,779,779,779,779,779,779,779,779,779,779,779,779,779,779,779,779,779,779,779,779,779,779,779,779,779,779,779,779,779,779,779,779,779,779,779,779,779,779,779,779,779,779,779,779,779,779,779,779,779,779,779,779,779,779,779,779,779,779,779,779,779,779,779,779,779,779,779,779,
545,545,545,545,545,545,545,545,545,545,545,545,545,545,545,545,545,545,545,545,545,545,545,545,545,545,545,545,545,545,545,545,545,545,545,545,545,545,545,545,545,545,545,545,545,545,545,534,535,535,535,535,535,535,535,535,535,535,535,535,536,779,779,779,779,779,779,779,779,779,779,779,779,779,779,779,779,779,779,779,779,779,779,779,779,779,779,779,779,779,779,779,779,779,779,779,779,779,779,779,779,779,779,779,779,779,779,779,779,779,779,779,779,779,779,779,779,779,779,779,
545,545,545,545,545,545,545,545,545,545,545,545,545,545,545,545,545,545,545,545,545,545,545,545,545,545,545,545,545,545,545,545,545,534,552,552,552,552,552,552,552,552,552,552,552,552,552,553,779,779,779,779,779,779,779,779,779,779,779,779,541,779,779,779,779,779,779,779,779,779,779,779,779,779,779,779,779,779,779,779,779,779,779,779,779,779,779,779,779,779,779,779,779,779,779,779,779,779,779,779,779,779,779,779,779,779,779,779,779,779,779,779,779,779,779,779,779,779,779,779,
545,545,545,545,545,545,545,545,545,545,545,545,545,545,545,545,545,545,545,545,545,545,545,545,545,545,545,545,534,552,552,552,552,553,779,779,779,779,779,779,779,779,779,779,779,779,779,779,779,779,779,779,779,779,779,779,779,779,779,779,551,535,535,535,535,536,779,779,779,779,779,779,779,779,779,779,779,779,779,779,779,779,779,779,779,779,779,779,779,779,779,779,779,779,779,779,779,779,779,779,779,779,779,779,779,779,779,779,779,779,779,779,779,779,779,779,779,779,779,779,
545,545,545,545,545,545,545,545,545,545,545,545,545,545,545,545,545,545,545,545,545,545,545,545,545,545,534,552,553,779,779,779,779,779,779,779,264,532,779,779,779,779,779,779,779,779,779,779,779,779,779,779,779,779,779,779,779,779,779,779,779,779,779,779,779,551,535,535,535,535,536,779,779,779,779,779,779,779,779,779,779,779,779,779,779,779,779,779,779,779,779,779,779,779,779,779,779,779,779,779,779,779,779,779,779,779,779,779,779,779,779,779,779,779,779,779,779,779,779,779,
545,545,545,545,545,545,545,545,545,545,545,545,545,545,545,545,545,545,545,545,545,545,545,545,545,545,544,779,779,779,779,779,779,779,779,779,779,779,779,779,779,779,779,779,779,779,779,779,534,552,552,552,552,552,552,552,552,552,552,552,552,552,536,779,779,779,779,779,779,779,541,779,779,779,779,779,779,779,779,779,779,779,779,779,779,779,779,779,779,779,779,779,779,779,779,779,779,779,779,779,779,779,779,779,779,779,779,779,779,779,779,779,779,779,779,779,779,779,779,779,
545,545,545,545,545,545,545,545,545,545,545,545,545,545,545,545,545,545,545,545,545,545,545,545,545,545,544,779,779,779,779,779,779,779,779,779,779,779,779,779,779,534,552,552,552,552,552,552,553,779,779,779,779,779,779,779,779,779,779,779,779,779,541,779,779,779,779,779,779,779,551,535,535,535,535,546,546,546,546,546,546,546,546,546,546,546,546,546,546,546,546,546,546,546,546,546,546,546,546,546,546,546,546,546,546,546,546,546,546,546,546,546,536,542,542,542,542,542,542,542,
545,545,545,545,545,545,545,545,545,545,545,545,545,545,545,545,545,545,545,545,545,545,545,545,545,545,544,779,779,779,534,552,552,552,552,552,552,552,552,552,552,553,779,779,779,779,779,779,779,779,779,779,779,779,779,779,779,779,779,779,779,779,541,779,779,779,779,779,779,779,779,779,779,779,779,545,779,779,779,779,779,779,779,779,779,779,779,779,779,779,779,779,779,779,779,779,779,779,779,779,779,779,779,779,779,779,779,779,779,779,779,779,546,779,779,779,779,779,779,779,
535,535,535,535,535,535,535,535,535,535,535,535,535,535,535,535,535,552,552,552,552,552,552,552,552,552,553,779,779,779,543,779,779,779,779,779,779,779,779,779,779,779,779,779,779,779,779,779,779,779,779,779,779,779,779,779,779,779,779,779,779,779,551,535,535,535,535,535,535,535,535,535,535,535,535,535,535,535,535,535,535,535,535,535,535,535,535,535,536,779,779,779,779,779,779,779,779,779,779,779,779,779,779,779,779,779,779,779,779,779,779,779,546,779,779,779,779,779,779,779,
545,545,545,545,545,545,545,545,545,545,545,545,545,545,545,545,545,779,779,779,779,779,779,779,779,779,779,779,779,779,543,779,779,779,779,779,779,779,779,779,779,779,779,779,779,779,779,779,779,779,779,779,779,779,779,779,779,779,779,779,779,779,779,779,779,779,779,779,779,779,779,779,545,779,779,779,779,779,779,779,779,779,779,779,779,779,779,779,551,536,779,779,779,779,779,779,779,779,779,779,779,779,779,779,779,779,779,779,779,779,779,779,546,779,779,779,779,779,779,779,
545,545,545,545,545,534,535,535,535,535,535,535,535,535,535,535,535,535,535,535,535,535,535,535,535,535,535,535,535,535,553,779,779,779,779,779,779,779,779,779,779,779,779,779,779,779,779,779,779,779,779,779,779,779,779,779,779,779,779,779,779,779,779,779,779,779,779,779,779,779,779,779,545,779,779,779,779,779,779,779,779,779,779,779,779,779,779,779,779,551,535,535,535,535,535,535,535,535,535,535,535,535,535,535,536,779,779,779,779,779,779,779,546,779,779,779,779,779,779,779,
545,545,545,545,545,543,544,949,949,949,949,949,949,949,949,949,949,949,949,949,949,949,949,949,949,949,949,949,949,949,949,949,949,949,949,949,949,949,949,949,949,949,949,949,949,949,949,949,949,949,949,949,949,949,949,949,949,949,949,949,949,949,949,949,949,949,949,949,949,949,949,949,949,949,949,949,949,949,949,949,949,949,949,949,949,949,949,949,949,949,949,949,949,949,949,949,949,949,949,949,949,949,949,949,541,779,779,779,779,779,779,779,546,779,779,779,779,779,779,779,
545,545,545,545,545,543,544,949,949,949,949,949,949,949,949,949,949,949,949,949,949,949,949,949,949,949,949,949,949,949,949,949,949,949,949,949,949,949,949,949,949,949,949,949,949,949,949,949,949,949,949,949,949,949,949,949,949,949,949,949,949,949,949,949,949,949,949,949,949,949,949,949,949,949,949,949,949,949,949,949,949,949,949,949,949,949,949,949,949,949,949,949,949,949,949,949,949,949,959,949,949,949,949,949,541,542,542,542,542,542,542,542,546,779,779,779,779,779,779,779,
545,545,545,545,545,543,544,949,949,949,949,949,949,949,949,949,949,959,949,949,949,949,949,949,949,949,949,949,949,949,949,949,949,949,949,949,949,949,949,949,949,949,949,949,949,949,949,949,949,949,949,949,949,949,949,949,957,949,949,949,957,949,959,949,949,949,949,951,949,949,949,949,949,949,949,949,949,949,949,949,949,949,949,949,949,949,949,949,949,949,949,949,949,949,949,949,949,949,949,949,949,949,949,949,541,542,542,542,542,542,542,542,546,779,779,779,779,779,779,779,
545,545,545,545,545,543,544,949,949,949,949,949,949,949,949,949,949,949,949,949,949,949,949,949,949,949,959,949,949,949,949,949,949,949,949,959,949,949,949,949,957,949,949,951,949,949,949,949,949,949,959,949,949,949,949,949,949,949,949,949,949,949,949,949,949,949,949,949,949,949,949,949,949,957,951,949,949,949,949,949,949,949,949,949,949,949,949,949,949,949,949,949,949,957,949,949,949,949,949,949,949,949,949,949,541,542,542,542,542,542,542,542,546,779,779,779,779,779,779,779,
545,545,545,545,545,543,543,949,949,959,949,957,949,949,949,949,949,949,949,949,957,949,949,949,949,949,949,949,949,949,959,949,949,949,949,949,949,949,949,949,949,949,949,949,949,949,949,949,949,949,949,949,949,949,949,949,949,949,949,949,949,949,949,949,949,949,949,949,949,949,949,949,949,949,949,949,949,959,949,949,949,949,949,949,949,949,949,949,949,949,949,949,949,949,949,949,949,949,949,949,957,949,949,949,541,542,542,542,542,542,542,542,546,779,779,779,779,779,779,779,
545,545,534,552,552,553,543,949,949,949,951,949,959,949,949,949,949,949,949,949,949,949,949,949,949,949,949,949,949,949,949,949,949,949,949,949,949,949,949,949,949,949,949,949,949,949,949,949,949,949,949,949,949,949,949,949,959,949,949,949,949,949,949,949,949,949,949,949,949,949,949,949,949,949,949,949,949,949,949,949,949,949,949,949,959,949,949,949,949,949,949,949,949,949,949,949,949,949,949,949,949,949,949,949,541,542,542,542,542,542,542,542,546,779,779,779,779,779,779,779,
545,545,544,779,779,779,543,949,949,949,949,949,949,958,949,949,949,949,949,949,949,949,949,949,949,949,949,949,949,949,949,949,957,949,949,949,949,949,949,949,949,949,949,949,949,949,949,949,949,949,949,949,949,949,949,949,949,949,949,949,949,949,949,949,949,949,949,949,949,949,949,949,949,949,949,949,949,949,949,957,949,949,949,949,949,949,949,949,949,949,949,949,949,949,949,949,949,949,949,949,949,949,949,949,541,542,542,542,542,542,542,542,546,779,779,779,779,779,779,779,
545,545,544,779,779,779,543,949,949,949,958,949,949,949,569,569,569,569,569,569,569,569,569,569,569,569,569,569,949,949,949,949,949,949,949,949,949,569,569,569,569,569,569,569,569,569,569,569,569,569,569,949,949,949,949,949,949,949,949,949,569,569,569,569,569,569,569,569,569,569,569,569,569,569,949,949,949,949,949,949,949,949,949,569,569,569,569,569,569,569,569,569,569,569,569,569,569,949,951,949,949,949,949,949,541,542,542,542,542,542,542,542,546,542,542,779,779,779,779,779,
552,552,553,779,779,779,543,949,949,949,949,949,949,949,569,569,569,569,569,569,569,569,569,569,569,569,569,569,949,949,949,949,959,951,949,949,949,569,569,569,569,569,569,569,569,569,569,569,569,569,569,949,951,949,957,949,949,949,949,949,569,569,569,569,569,569,569,569,569,569,569,569,569,569,949,949,949,951,949,949,949,949,949,569,569,569,569,569,569,569,569,569,569,569,569,569,569,949,949,949,949,949,949,949,541,779,779,779,779,779,779,779,546,542,542,779,779,779,779,779,
779,779,779,779,779,779,543,949,949,949,959,949,949,949,569,569,569,569,569,569,569,569,569,569,569,569,569,569,949,949,949,949,949,949,958,949,949,569,569,569,569,569,569,569,569,569,569,569,569,569,569,949,949,949,949,949,949,949,949,949,569,569,569,569,569,569,569,569,569,569,569,569,569,569,949,949,949,949,949,950,949,949,949,569,569,569,569,569,569,569,569,569,569,569,569,569,569,949,949,949,949,949,949,949,541,779,779,779,779,779,779,779,546,542,542,779,779,779,779,779,
779,779,779,779,534,552,553,949,949,949,949,949,949,949,569,569,569,569,569,569,569,569,569,569,569,569,569,569,949,949,949,949,949,949,949,949,949,569,569,569,569,569,569,569,569,569,569,569,569,569,569,949,949,949,949,949,949,959,949,949,569,569,569,569,569,569,569,569,569,569,569,569,569,569,949,949,949,949,949,949,949,949,949,569,569,569,569,569,569,569,569,569,569,569,569,569,569,949,949,949,949,949,949,949,541,779,779,779,779,779,779,779,546,542,542,779,779,779,779,779,
779,779,545,779,544,779,779,949,949,949,949,949,949,949,569,569,569,569,569,569,569,569,569,569,569,569,569,569,949,949,949,949,949,949,949,949,949,569,569,569,569,569,569,569,569,569,569,569,569,569,569,949,949,949,949,949,949,949,949,949,569,569,569,569,569,569,569,569,569,569,569,569,569,569,949,949,949,949,949,949,949,949,949,569,569,569,569,569,569,569,569,569,569,569,569,569,569,949,949,949,949,949,949,949,541,779,779,779,779,779,779,779,551,552,552,552,552,552,552,552,
552,552,552,552,553,779,779,949,949,949,949,951,949,949,569,569,569,569,569,569,569,569,569,569,569,569,569,569,949,949,949,949,949,949,959,949,949,569,569,569,569,569,569,569,569,569,569,569,569,569,569,949,959,949,949,949,949,949,949,949,569,569,569,569,569,569,569,569,569,569,569,569,569,569,949,949,949,949,949,949,949,949,949,569,569,569,569,569,569,569,569,569,569,569,569,569,569,949,949,957,949,949,949,949,541,779,779,779,779,779,779,779,779,542,542,542,542,542,542,542,
779,779,779,779,779,779,779,949,949,949,949,949,958,949,569,569,569,569,569,569,569,569,569,569,569,569,569,569,949,949,949,949,949,949,949,949,949,569,569,569,569,569,569,569,569,569,569,569,569,569,569,949,949,949,949,949,949,949,949,949,569,569,569,569,569,569,569,569,569,569,569,569,569,569,949,949,949,949,949,949,949,949,949,569,569,569,569,569,569,569,569,569,569,569,569,569,569,949,949,949,949,949,949,949,541,779,779,779,779,779,779,779,779,542,542,542,542,542,542,542,
779,779,779,779,779,779,779,949,949,949,949,949,949,949,569,569,569,569,569,569,569,569,569,569,569,569,569,569,949,949,949,949,949,949,949,949,949,569,569,569,569,569,569,569,569,569,569,569,569,569,569,949,949,949,949,949,949,949,949,949,569,569,569,569,569,569,569,569,569,569,569,569,569,569,949,949,949,949,949,949,949,949,949,569,569,569,569,569,569,569,569,569,569,569,569,569,569,949,949,949,949,949,949,949,541,779,779,779,779,779,779,779,779,779,779,779,779,779,779,779,
779,779,779,779,779,779,779,949,949,949,949,958,949,949,569,569,569,569,569,569,569,569,569,569,569,569,569,569,949,949,949,949,949,949,949,949,949,569,569,569,569,569,569,569,569,569,569,569,569,569,569,949,949,949,959,949,949,949,949,949,569,569,569,569,569,569,569,569,569,569,569,569,569,569,949,949,949,949,949,949,949,949,949,569,569,569,569,569,569,569,569,569,569,569,569,569,569,949,949,949,949,949,949,949,541,779,779,779,779,779,779,779,779,779,779,779,779,779,779,779,
950,950,950,950,950,950,950,950,949,949,949,949,949,949,949,949,949,949,949,949,949,949,949,949,949,949,949,949,949,949,949,949,949,949,949,949,949,949,949,949,949,949,949,949,949,949,949,949,949,949,949,949,949,949,949,949,957,949,949,949,949,959,949,949,949,949,949,949,949,949,949,949,949,949,949,949,949,949,949,949,949,949,949,949,949,949,949,949,949,949,949,949,949,949,949,949,949,949,949,949,949,949,949,959,551,535,535,535,536,779,779,779,779,779,779,779,779,779,779,779,
950,950,950,950,950,950,950,950,959,949,949,949,949,949,959,949,949,959,949,949,957,949,949,949,949,949,949,949,949,949,959,949,949,949,957,949,949,949,949,949,949,959,949,949,949,949,949,949,949,949,949,949,949,949,949,949,949,949,959,949,949,949,949,949,949,949,949,949,949,949,949,949,949,949,949,949,949,949,949,949,949,949,949,949,959,949,949,949,951,949,949,949,949,949,949,949,949,949,949,949,959,949,949,949,779,779,779,779,546,779,779,779,779,779,779,779,779,779,779,779,
950,950,950,950,950,950,950,950,949,949,949,951,949,949,949,949,949,949,949,949,949,949,949,959,949,949,949,949,949,949,949,949,949,949,949,949,949,949,949,949,949,949,949,949,949,949,949,949,949,949,959,949,949,949,949,958,949,949,949,949,949,949,949,949,949,949,949,949,949,949,949,949,957,949,949,959,949,949,949,949,949,957,949,957,949,949,949,949,949,949,949,949,949,949,949,949,949,949,949,949,949,949,949,949,779,779,779,779,546,779,779,779,779,779,779,779,779,779,779,779,
950,950,950,950,950,950,950,950,949,949,949,949,949,949,949,949,949,949,949,949,949,949,949,949,949,949,957,949,949,949,949,949,949,949,949,949,949,949,949,949,949,949,949,949,949,957,949,949,949,949,949,949,949,949,949,949,949,949,949,949,949,949,949,949,949,949,949,949,949,959,949,949,949,949,949,949,949,949,949,949,959,949,949,949,949,949,949,949,949,959,949,949,957,949,949,949,949,949,949,949,949,949,949,949,779,779,779,779,546,779,779,779,779,779,779,779,779,779,779,779,
950,950,950,950,950,950,950,950,949,949,949,949,949,949,949,949,949,949,949,949,949,949,949,949,949,949,949,949,949,949,951,949,949,949,949,949,959,949,949,949,949,949,959,949,949,949,949,949,949,949,949,949,949,949,949,949,949,949,949,949,949,949,949,949,949,949,949,949,949,949,949,949,949,949,949,949,949,949,949,949,949,949,949,949,949,949,949,949,949,949,949,949,949,949,959,949,949,949,949,949,949,949,949,949,779,779,779,779,546,779,779,779,779,779,779,779,779,779,779,779,
950,950,950,950,950,950,950,950,949,951,949,959,949,949,949,949,949,949,949,949,949,949,949,949,949,949,949,949,949,949,949,958,949,949,949,949,949,949,949,949,949,949,949,949,949,949,949,949,949,949,949,949,949,949,949,949,949,949,949,949,949,949,949,949,949,949,949,949,949,949,949,949,949,949,949,949,949,949,957,949,949,949,949,949,949,949,949,949,949,949,949,949,949,949,949,949,949,949,949,949,949,949,949,949,779,779,779,779,546,779,779,779,779,779,779,779,779,779,779,779,
569,569,569,569,569,569,569,949,949,949,949,949,949,949,569,569,569,569,569,569,569,569,569,569,569,569,569,569,949,949,949,949,949,949,949,949,949,569,569,569,569,569,569,569,569,569,569,569,569,569,569,949,949,949,949,958,949,949,949,949,569,569,569,569,569,569,569,569,569,569,569,569,569,569,949,949,949,949,949,949,949,949,949,569,569,569,569,569,569,569,569,569,569,569,569,569,569,949,949,949,949,949,949,949,779,779,779,779,546,779,779,779,779,779,779,779,779,779,779,779,
569,569,569,569,569,569,569,949,949,949,949,949,949,949,569,569,569,569,569,569,569,569,569,569,569,569,569,569,949,949,949,949,949,949,959,949,949,569,569,569,569,569,569,569,569,569,569,569,569,569,569,949,949,949,949,949,949,949,949,949,569,569,569,569,569,569,569,569,569,569,569,569,569,569,949,949,949,949,949,949,949,949,949,569,569,569,569,569,569,569,569,569,569,569,569,569,569,949,949,949,949,949,949,949,779,779,779,779,546,779,779,779,779,779,779,779,779,779,779,779,
569,569,569,569,569,569,569,949,949,949,949,949,949,949,569,569,569,569,569,569,569,569,569,569,569,569,569,569,949,949,949,949,949,949,949,949,949,569,569,569,569,569,569,569,569,569,569,569,569,569,569,949,949,949,949,949,959,949,949,949,569,569,569,569,569,569,569,569,569,569,569,569,569,569,949,949,949,949,959,949,949,949,949,569,569,569,569,569,569,569,569,569,569,569,569,569,569,949,949,949,949,949,949,949,779,779,779,779,546,779,779,779,779,779,779,779,779,779,779,779,
569,569,569,569,569,569,569,949,949,949,949,949,949,949,569,569,569,569,569,569,569,569,569,569,569,569,569,569,949,949,949,957,949,949,949,949,949,569,569,569,569,569,569,569,569,569,569,569,569,569,569,949,949,949,949,949,949,949,949,949,569,569,569,569,569,569,569,569,569,569,569,569,569,569,949,949,949,949,949,949,949,949,949,569,569,569,569,569,569,569,569,569,569,569,569,569,569,949,949,949,949,949,949,949,779,779,779,779,546,779,779,779,779,779,779,779,779,779,779,779,
569,569,569,569,569,569,569,949,949,949,949,949,949,949,569,569,569,569,569,569,569,569,569,569,569,569,569,569,949,949,959,949,949,951,949,949,949,569,569,569,569,569,569,569,569,569,569,569,569,569,569,949,949,949,949,949,949,949,949,949,569,569,569,569,569,569,569,569,569,569,569,569,569,569,949,949,949,951,949,949,949,949,949,569,569,569,569,569,569,569,569,569,569,569,569,569,569,949,949,949,949,949,949,949,779,779,779,779,546,779,779,779,779,779,779,779,779,779,779,779,
779,779,779,779,779,779,779,949,949,949,949,949,949,949,569,569,569,569,569,569,569,569,569,569,569,569,569,569,949,949,949,949,949,949,949,949,949,569,569,569,569,569,569,569,569,569,569,569,569,569,569,949,949,949,949,949,949,949,949,949,569,569,569,569,569,569,569,569,569,569,569,569,569,569,949,949,949,949,949,949,949,949,949,569,569,569,569,569,569,569,569,569,569,569,569,569,569,949,949,949,949,949,949,949,779,779,779,531,779,779,779,779,779,779,779,779,779,779,779,779,
779,779,779,779,779,779,779,949,949,949,949,949,949,949,569,569,569,569,569,569,569,569,569,569,569,569,569,569,949,949,949,949,949,949,949,949,949,569,569,569,569,569,569,569,569,569,569,569,569,569,569,949,949,949,959,949,949,949,949,949,569,569,569,569,569,569,569,569,569,569,569,569,569,569,949,949,949,949,957,949,949,949,949,569,569,569,569,569,569,569,569,569,569,569,569,569,569,949,949,949,949,949,949,949,779,779,531,779,779,779,779,779,779,779,779,779,779,779,779,779,
779,779,779,779,779,779,779,949,949,949,949,949,949,949,779,779,779,779,779,779,779,779,779,779,779,779,779,779,949,949,949,949,949,949,949,949,949,779,779,779,779,779,779,779,779,779,779,779,779,779,779,949,949,949,949,949,949,949,949,949,569,569,569,569,569,569,569,569,569,569,569,569,569,569,949,949,959,949,949,949,949,949,949,779,779,779,779,779,779,779,779,779,779,779,779,779,569,949,949,949,949,949,949,949,779,779,546,779,779,779,779,779,779,779,779,779,779,779,779,779,
779,779,779,779,779,779,779,949,949,949,949,949,949,949,779,779,779,779,779,779,779,779,779,779,779,779,779,779,949,949,949,949,949,949,949,949,949,779,779,779,779,779,779,779,779,779,779,779,779,779,779,949,949,949,949,949,949,949,949,949,779,779,779,779,779,779,779,779,779,779,779,779,779,779,949,949,949,949,949,949,949,959,949,779,779,779,779,779,779,779,779,779,779,779,779,779,569,949,949,949,949,949,949,949,779,779,546,779,779,779,779,779,779,779,779,779,779,779,779,779,
569,569,569,569,569,569,569,949,949,949,949,949,951,949,779,779,779,779,779,779,779,779,779,779,779,779,779,779,949,949,951,949,949,959,949,957,949,779,779,779,779,779,779,779,779,779,779,779,779,779,779,949,949,949,949,949,949,959,949,949,779,779,779,779,779,779,779,779,779,779,779,779,779,779,949,949,949,949,949,949,949,949,949,779,779,779,779,779,779,779,779,779,779,779,779,779,569,949,949,949,949,959,949,949,779,779,546,779,779,779,779,779,779,779,779,779,779,779,779,779,
950,950,950,950,950,950,950,950,949,949,949,949,949,949,949,949,949,949,949,949,949,949,949,949,949,949,949,949,949,949,949,949,949,949,949,949,949,949,949,949,949,949,949,949,949,949,949,949,949,949,949,949,949,949,949,949,949,949,949,949,949,949,949,949,949,949,949,949,949,949,949,949,949,949,949,949,949,949,949,949,949,949,949,949,949,949,949,949,949,949,949,949,949,949,949,949,949,949,957,949,949,949,949,949,779,779,546,779,779,779,779,779,779,779,779,779,779,779,779,779,
950,950,950,950,950,950,950,950,949,949,949,949,949,949,949,949,949,949,949,949,949,949,949,949,949,949,949,949,949,949,958,949,949,949,949,949,949,949,949,949,949,949,949,949,949,949,949,949,949,949,949,949,949,958,949,949,951,949,949,949,949,949,949,949,949,949,949,949,949,949,949,949,949,949,959,949,949,949,949,951,949,949,949,949,949,949,949,949,949,949,949,949,949,949,959,949,949,949,949,949,949,949,949,949,779,779,546,779,779,779,779,779,779,779,779,779,779,779,779,779,
950,950,950,950,950,950,950,950,949,959,949,949,949,949,949,949,949,949,949,949,949,951,949,949,949,949,949,959,949,949,949,949,949,949,949,957,949,949,949,949,949,949,949,951,949,949,949,949,949,949,949,949,949,949,949,949,949,949,957,949,949,949,949,949,949,949,949,949,949,949,949,949,949,949,957,949,949,949,949,949,949,957,949,949,949,959,949,949,949,949,949,949,949,949,949,949,949,949,949,949,949,949,949,949,531,532,556,542,542,542,542,542,542,542,542,542,542,542,542,542,
950,950,950,950,950,950,950,950,949,949,949,949,949,949,949,949,959,949,949,949,949,959,949,949,949,949,949,949,949,949,949,949,949,951,949,949,959,949,949,949,949,949,949,949,949,949,949,959,949,949,949,949,949,949,949,949,949,949,949,959,949,949,949,949,949,949,949,949,949,949,949,949,949,949,949,949,949,949,949,949,949,949,949,949,949,949,949,949,949,959,949,949,949,949,949,949,949,949,949,949,949,959,949,949,546,779,779,542,542,542,542,542,542,542,542,542,542,542,542,542,
950,950,950,950,950,950,950,950,949,957,949,949,958,949,949,949,949,949,949,957,949,949,949,949,949,949,957,949,949,949,949,949,949,949,949,949,949,949,949,949,949,949,949,949,949,957,949,949,949,949,958,949,949,949,949,949,949,949,949,949,949,949,949,949,949,949,949,959,949,949,949,949,949,949,949,949,949,949,949,949,949,949,949,949,949,949,949,949,949,949,949,949,951,949,949,949,949,959,949,951,949,949,957,949,546,779,779,542,542,542,542,542,542,542,542,542,542,542,542,542,
950,950,950,950,950,950,950,950,949,949,951,949,949,949,949,949,949,959,949,949,949,949,949,949,949,949,949,949,949,949,949,949,949,949,949,949,949,949,949,949,949,949,949,949,949,949,949,949,949,949,949,949,949,949,959,949,949,949,949,949,949,949,949,949,949,949,949,949,949,949,949,949,949,949,949,949,949,949,949,949,949,949,949,949,949,951,949,949,949,949,949,949,949,949,949,949,949,949,949,949,949,949,949,949,546,779,779,542,542,542,542,542,542,542,542,542,542,542,542,542,
950,950,950,950,950,950,950,950,949,949,949,949,949,949,949,949,949,949,949,949,949,959,949,949,949,949,949,949,949,949,949,951,949,949,949,949,949,949,949,949,949,949,949,949,949,949,949,949,949,949,949,949,949,949,949,949,949,949,949,949,949,949,949,949,949,949,949,949,949,949,949,949,949,949,949,949,949,949,949,949,949,949,949,949,949,949,949,949,949,949,949,949,949,949,949,949,949,949,949,949,949,959,949,949,546,779,779,779,779,779,779,779,779,779,779,779,779,779,779,779,
569,569,569,569,569,569,569,949,949,949,959,949,949,949,779,779,779,779,779,779,779,779,779,779,779,779,779,779,949,949,949,949,959,949,949,949,949,779,779,779,779,779,779,779,779,779,779,779,779,779,779,949,949,949,949,949,949,949,949,949,779,779,779,779,779,779,779,779,779,779,779,779,779,779,949,949,949,949,949,949,949,949,949,779,779,779,779,779,779,779,779,779,779,779,779,779,569,949,949,949,949,949,949,949,546,779,779,779,779,779,779,779,779,779,779,779,779,779,779,779,
569,569,569,569,569,569,569,949,949,949,949,949,958,949,779,779,779,779,779,779,779,779,779,779,779,779,779,779,949,949,949,949,949,949,949,949,949,779,779,779,779,779,779,779,779,779,779,779,779,779,779,949,949,949,949,949,949,949,949,949,779,779,779,779,779,779,779,779,779,779,779,779,779,779,949,949,949,949,949,949,949,949,949,779,779,779,779,779,779,779,779,779,779,779,779,779,569,949,949,949,949,949,949,949,546,779,779,779,779,779,779,779,779,779,779,779,779,779,779,779,
779,779,779,779,779,779,779,949,949,949,949,949,949,949,779,779,779,779,779,779,779,779,779,779,779,779,779,779,949,949,949,949,949,949,949,949,949,779,779,779,779,779,779,779,779,779,779,779,779,779,779,949,949,949,949,949,949,949,949,949,779,779,779,779,779,779,779,779,779,779,779,779,779,779,949,949,949,949,949,949,949,949,949,779,779,779,779,779,779,779,779,779,779,779,779,779,569,949,949,949,949,949,949,949,546,779,779,779,779,779,779,779,779,779,779,779,779,779,779,779,
779,779,779,779,779,779,779,949,949,949,949,951,949,949,779,779,779,779,779,779,779,779,779,779,779,779,779,779,949,949,949,949,949,949,949,949,949,779,779,779,779,779,779,779,779,779,779,779,779,779,779,949,949,949,949,949,949,949,949,949,779,779,779,779,779,779,779,779,779,779,779,779,779,779,949,949,949,949,949,949,949,949,949,779,779,779,779,779,779,779,779,779,779,779,779,779,569,949,949,949,949,949,949,949,546,779,779,779,779,779,779,779,779,779,779,779,779,779,779,779,
779,779,779,779,779,779,779,949,949,949,949,957,949,949,779,779,779,779,779,779,779,779,779,779,779,779,779,779,949,949,949,949,949,949,949,949,949,779,779,779,779,779,779,779,779,779,779,779,779,779,779,949,949,949,949,949,949,949,949,949,779,779,779,779,779,779,779,779,779,779,779,779,779,779,949,949,949,949,949,949,949,949,949,779,779,779,779,779,779,779,779,779,779,779,779,779,569,949,949,949,949,949,949,949,546,779,779,779,779,779,779,779,779,779,779,779,779,779,779,779,
779,779,779,779,779,779,779,949,949,949,949,949,949,949,779,779,779,779,779,779,779,779,779,779,779,779,779,779,949,951,949,949,959,949,949,949,949,779,779,779,779,779,779,779,779,779,779,779,779,779,779,949,949,949,949,949,949,949,949,949,779,779,779,779,779,779,779,779,779,779,779,779,779,779,949,949,949,949,949,949,949,949,949,779,779,779,779,779,779,779,779,779,779,779,779,779,569,949,949,949,949,949,949,949,546,779,779,779,779,779,779,779,779,779,779,779,779,779,779,779,
779,779,779,779,779,779,779,949,951,949,949,949,949,949,779,779,779,779,779,779,779,779,779,779,779,779,779,779,949,949,949,949,949,949,959,949,949,779,779,779,779,779,779,779,779,779,779,779,779,779,779,949,949,949,949,949,949,949,949,949,779,779,779,779,779,779,779,779,779,779,779,779,779,779,949,949,949,949,949,949,949,949,949,779,779,779,779,779,779,779,779,779,779,779,779,779,569,949,949,949,959,949,949,949,546,779,779,779,779,779,779,779,779,779,779,779,779,779,779,779,
779,779,779,779,779,779,779,949,959,949,949,949,949,949,779,779,779,779,779,779,779,779,779,779,779,779,779,779,949,949,949,949,949,949,949,949,949,779,779,779,779,779,779,779,779,779,779,779,779,779,779,949,949,949,949,949,949,949,949,949,569,569,569,569,569,569,569,569,569,569,569,569,569,569,949,949,949,949,949,949,949,949,949,779,779,779,779,779,779,779,779,779,779,779,779,779,951,949,949,949,949,949,949,949,546,779,779,779,779,779,779,779,779,779,779,779,779,779,779,779,
779,779,779,779,779,779,779,958,949,949,949,949,949,949,569,569,569,569,569,569,569,569,569,569,569,569,569,569,949,949,949,949,949,949,951,949,949,569,958,569,569,569,569,569,569,569,569,569,569,569,569,949,949,949,949,949,949,949,949,949,569,569,569,569,569,569,569,569,569,569,569,569,569,569,949,949,949,949,957,949,949,949,949,569,569,569,569,569,569,569,569,569,569,569,569,569,569,949,949,949,949,949,949,949,546,779,779,779,779,779,779,779,779,779,779,779,779,779,779,779,
779,779,779,779,779,779,779,949,949,949,957,951,949,949,949,949,949,949,949,949,949,949,949,949,949,949,949,949,949,949,949,949,949,949,949,949,949,949,949,949,949,949,949,949,949,949,949,949,949,949,949,949,949,949,949,949,949,949,949,949,949,949,949,949,949,949,949,949,949,949,949,949,949,949,949,949,949,949,949,949,959,949,949,949,949,949,949,949,949,949,949,949,949,949,957,949,949,949,957,949,949,949,949,949,546,779,779,779,779,779,779,779,779,779,779,779,779,779,779,779,
779,779,779,779,779,779,779,949,949,949,949,949,949,949,958,959,949,949,949,949,949,949,949,949,949,949,949,949,949,949,959,958,957,949,949,949,951,949,949,949,949,949,949,958,949,949,949,949,949,949,949,949,949,949,949,949,949,949,949,949,949,949,949,949,959,949,949,949,949,949,949,949,949,949,949,949,959,958,949,949,949,957,949,949,949,949,949,957,949,949,949,949,949,949,949,949,949,959,949,949,949,949,949,949,546,779,779,779,779,779,779,779,779,779,779,779,779,779,779,779,
779,779,779,779,779,779,779,949,949,959,949,949,949,949,949,949,949,949,949,949,949,949,949,957,958,949,949,949,949,949,949,949,949,949,949,949,949,959,949,949,949,949,949,957,949,949,949,959,949,949,949,951,949,949,949,949,949,949,949,958,949,959,957,949,949,949,949,949,958,949,949,949,958,949,949,949,949,949,949,949,949,949,949,949,959,949,949,949,949,949,959,949,949,949,949,949,949,949,949,949,949,949,949,949,546,779,779,779,779,779,779,779,779,779,779,779,779,779,779,779,
779,779,779,779,779,779,779,949,949,949,949,949,949,949,949,959,949,949,949,949,957,949,951,949,959,949,949,949,949,949,949,959,949,949,949,949,949,949,949,949,959,949,949,949,951,949,949,949,949,949,949,949,949,957,949,949,949,949,949,949,949,949,949,949,949,949,949,959,949,949,949,949,949,949,959,949,949,949,949,949,949,949,949,949,949,949,949,949,949,949,949,949,949,949,959,949,949,949,949,949,949,949,959,949,546,779,779,779,779,779,779,779,779,779,779,779,779,779,779,779,
779,779,779,779,779,779,779,949,949,949,949,949,949,949,949,949,949,949,949,949,949,949,949,949,949,949,949,949,949,949,949,949,949,949,949,949,958,949,949,949,949,949,949,949,949,949,949,949,949,949,949,958,949,949,949,949,949,949,949,949,949,949,949,949,949,949,949,949,949,949,949,949,957,949,949,949,949,949,949,949,949,949,949,949,949,949,949,949,959,949,949,949,949,949,949,949,949,949,949,949,949,949,949,949,546,779,779,779,779,779,779,779,779,779,779,779,779,779,779,779,
779,779,779,779,779,779,779,949,949,949,949,949,949,949,949,949,949,949,949,949,949,949,949,949,949,949,949,949,949,949,949,949,949,949,949,949,949,949,949,949,949,949,949,949,949,949,949,949,949,949,949,949,949,949,949,949,949,949,949,949,949,949,949,949,949,949,949,949,949,949,949,949,949,949,949,949,949,949,949,949,959,949,949,949,949,949,949,949,949,949,949,949,949,949,949,949,949,949,949,949,949,949,949,949,546,779,779,779,779,779,779,779,779,779,779,779,779,779,779,779,
779,779,779,779,779,779,779,779,779,779,779,779,779,779,779,779,779,779,779,779,779,779,779,779,779,779,779,779,779,779,779,779,779,779,779,779,779,779,779,779,779,779,779,779,779,779,779,779,779,779,779,779,779,779,779,779,779,779,779,779,779,779,779,779,779,779,779,779,779,779,779,779,779,779,779,779,779,779,779,779,779,779,779,779,779,779,779,779,779,779,779,779,779,779,779,541,532,532,532,532,532,532,532,532,556,779,779,779,779,779,779,779,779,779,779,779,779,779,779,779,
779,779,779,779,779,779,779,779,779,779,779,779,779,779,779,779,779,779,779,779,779,779,779,779,779,779,779,779,779,779,779,779,779,779,779,779,779,779,779,779,779,779,779,779,779,779,779,779,779,779,779,779,779,779,779,779,779,779,779,779,779,779,779,779,779,779,779,779,779,779,779,779,779,779,779,779,779,779,779,779,779,779,779,779,779,779,779,779,779,779,779,779,779,779,779,541,779,779,779,779,779,779,779,779,779,779,779,779,779,779,779,779,779,779,779,779,779,779,779,779,
779,779,779,779,779,779,779,779,779,779,779,779,779,779,779,779,779,779,779,779,779,779,779,779,779,779,779,779,779,779,779,779,779,779,779,779,779,779,779,779,779,779,779,779,779,779,779,779,779,779,779,779,779,779,779,779,779,779,779,779,779,779,779,779,779,779,779,779,779,779,779,779,779,779,779,779,779,779,779,779,779,779,779,779,779,779,779,779,779,779,779,779,779,779,779,779,779,779,779,779,779,779,779,779,779,779,779,779,779,779,779,779,779,779,779,779,779,779,779,779,
779,779,779,779,779,779,779,779,779,779,779,779,779,779,779,779,779,779,779,779,779,779,779,779,779,779,779,779,779,779,779,779,779,779,779,779,779,779,779,779,779,779,779,779,779,779,779,779,779,779,779,779,779,779,779,779,779,779,779,779,779,779,779,779,779,779,779,779,779,779,779,779,779,779,779,779,779,779,779,779,779,779,779,779,779,779,779,779,779,779,779,779,779,779,541,779,779,779,779,779,779,779,779,779,779,779,779,779,779,779,779,779,779,779,779,779,779,779,779,779,
779,779,779,779,779,779,779,779,779,779,779,779,779,779,779,779,779,779,779,779,779,779,779,779,779,779,779,779,779,779,779,779,779,779,779,779,779,779,779,779,779,779,779,779,779,779,779,779,779,779,779,779,779,779,779,779,779,779,779,779,779,779,779,779,779,779,779,779,779,779,779,779,779,779,779,779,779,779,779,779,779,779,779,779,779,779,779,779,779,779,779,779,779,779,541,779,779,779,779,779,779,779,779,779,779,779,779,779,779,779,779,779,779,779,779,779,779,779,779,779
</data>
 </layer>
 <objectgroup id="4" name="Entities">
  <object id="1298" name="Player" x="2715.44" y="2823.31">
   <point/>
  </object>
  <object id="1299" name="Enemy" x="708" y="2524">
   <point/>
  </object>
  <object id="1495" name="Enemy" x="3532" y="3992">
   <point/>
  </object>
  <object id="1496" name="Enemy" x="5032" y="1976">
   <point/>
  </object>
  <object id="1497" name="Enemy" x="5032" y="3520">
   <point/>
  </object>
  <object id="1498" name="Enemy" x="2104" y="3584">
   <point/>
  </object>
  <object id="1499" name="Enemy" x="3592" y="968">
   <point/>
  </object>
  <object id="1500" name="Enemy" x="2136" y="1968">
   <point/>
  </object>
  <object id="1501" name="Enemy" x="6432" y="2488">
   <point/>
  </object>
 </objectgroup>
 <objectgroup id="2" name="Transitions" locked="1"/>
 <objectgroup id="9" name="Collisions">
  <object id="1300" x="904.03" y="1156.9" width="886.607" height="570.199"/>
  <object id="1301" x="2365.36" y="1152.9" width="898.607" height="578.199"/>
  <object id="1302" x="3842.03" y="1162.9" width="899.94" height="570.199"/>
  <object id="1303" x="5310.03" y="1146.9" width="891.455" height="570.199"/>
  <object id="1304" x="901.03" y="3208.9" width="887.94" height="570.199"/>
  <object id="1305" x="2369.03" y="3203.57" width="883.94" height="579.532"/>
  <object id="1306" x="3845.09" y="3208.84" width="888.061" height="570.199"/>
  <object id="1307" x="5307.03" y="3198.9" width="900.546" height="570.199"/>
  <object id="1309" x="894.03" y="2114.9" width="899.94" height="636.199"/>
  <object id="1310" x="2365.18" y="2118.26" width="877.94" height="592.866"/>
  <object id="1312" x="5310.64" y="2106.14" width="899.94" height="636.199"/>
  <object id="1381" x="3849.03" y="1158.03" width="887.94" height="570.199"/>
  <object id="1406" x="5307.61" y="3202.42" width="899.94" height="570.199"/>
  <object id="1407" x="5314.61" y="3197.55" width="887.94" height="570.199"/>
  <object id="1502" x="3845.18" y="2117.93" width="891.455" height="627.775"/>
  <object id="1503" x="6659.12" y="703.203" width="891.455" height="3443.05"/>
  <object id="1504" x="-445.727" y="718.475" width="891.455" height="3443.05"/>
  <object id="1505" x="-37.7275" y="-977.525" width="7843.45" height="1683.05"/>
  <object id="1506" x="-113.725" y="4142.48" width="7971.45" height="1683.05"/>
 </objectgroup>
 <objectgroup id="3" name="Objects1"/>
 <objectgroup id="8" name="Objects2">
  <object id="1421" gid="253" x="890.242" y="1725.14" width="606.273" height="690.182"/>
  <object id="1422" gid="253" x="2360.89" y="3748.96" width="606.273" height="652.182"/>
  <object id="1423" gid="253" x="5312.89" y="1722.96" width="606.273" height="690.182"/>
  <object id="1424" gid="254" x="922.363" y="3754.55" width="828" height="706.333"/>
  <object id="1425" gid="255" x="5659.03" y="2754.05" width="602" height="552"/>
  <object id="1426" gid="255" x="3835.03" y="3632.05" width="602" height="552"/>
  <object id="1427" gid="255" x="2731.03" y="1577.38" width="552.667" height="529.333"/>
  <object id="1428" gid="255" x="892.121" y="2516.05" width="602" height="552"/>
  <object id="1430" gid="266" x="4382.49" y="3724.69" width="352.697" height="330.212"/>
  <object id="1431" gid="268" x="5323" y="2743.35" width="366.182" height="342.242"/>
  <object id="1432" gid="269" x="2935.36" y="3795.47" width="347.515" height="382.848"/>
  <object id="1433" gid="268" x="2950.27" y="3470.81" width="314.667" height="354.364"/>
  <object id="1434" gid="2147483915" x="4375.26" y="3453.91" width="379.848" height="418.333"/>
  <object id="1435" gid="267" x="5287.38" y="2473.67" width="425.303" height="375.909"/>
  <object id="1436" gid="2147483917" x="1444.1" y="2746.31" width="347.515" height="382.848"/>
  <object id="1437" gid="2147483915" x="1466.9" y="2390.33" width="379.848" height="418.333"/>
  <object id="1440" gid="269" x="5874.27" y="1730.96" width="347.515" height="382.848"/>
  <object id="1441" gid="268" x="5889.18" y="1406.3" width="314.667" height="354.364"/>
  <object id="1442" gid="266" x="2384.63" y="1400.94" width="352.697" height="330.212"/>
  <object id="1443" gid="267" x="2357.4" y="1703.5" width="379.848" height="418.333"/>
  <object id="1444" gid="268" x="1462.03" y="1497.05" width="332" height="398"/>
  <object id="1445" gid="980" x="893.363" y="2756.05" width="146.667" height="64"/>
  <object id="1446" gid="980" x="1332.7" y="2757.38" width="146.667" height="64"/>
  <object id="1447" gid="980" x="1040.03" y="2756.05" width="146.667" height="64"/>
  <object id="1448" gid="980" x="1736.03" y="2756.05" width="58.667" height="64"/>
  <object id="1449" gid="980" x="896.03" y="3785.38" width="146.667" height="64"/>
  <object id="1450" gid="980" x="1042.7" y="3785.38" width="146.667" height="64"/>
  <object id="1451" gid="980" x="1498.69" y="3788.05" width="146.667" height="64"/>
  <object id="1515" gid="980" x="895.357" y="3221.38" width="146.667" height="64"/>
  <object id="1517" gid="980" x="1188.69" y="3221.38" width="146.667" height="64"/>
  <object id="1452" gid="980" x="1645.36" y="3788.05" width="146.667" height="64"/>
  <object id="1514" gid="980" x="1042.03" y="3221.38" width="146.667" height="64"/>
  <object id="1516" gid="980" x="1335.36" y="3221.38" width="146.667" height="64"/>
  <object id="1453" gid="980" x="2369.36" y="3789.38" width="146.667" height="64"/>
  <object id="1454" gid="980" x="2516.03" y="3789.38" width="146.667" height="64"/>
  <object id="1455" gid="980" x="2661.36" y="3788.05" width="146.667" height="64"/>
  <object id="1457" gid="980" x="2368.63" y="2758.35" width="183.031" height="64"/>
  <object id="1459" gid="980" x="2935.37" y="1735.05" width="146.667" height="64"/>
  <object id="1460" gid="980" x="2683.36" y="1737.71" width="109.334" height="64"/>
  <object id="1461" gid="980" x="2790.03" y="1734.38" width="146.667" height="64"/>
  <object id="1462" gid="980" x="2370.7" y="1736.05" width="90.667" height="64"/>
  <object id="1463" gid="980" x="1146.03" y="1731.06" width="226.667" height="64"/>
  <object id="1464" gid="980" x="894.025" y="1733.72" width="109.334" height="64"/>
  <object id="1465" gid="980" x="1000.69" y="1730.39" width="146.667" height="64"/>
  <object id="1466" gid="980" x="1644.7" y="1729.72" width="146.667" height="64"/>
  <object id="1467" gid="980" x="1550.03" y="1729.05" width="96.0003" height="64"/>
  <object id="1468" gid="254" x="3870.36" y="1706.4" width="828" height="709.06"/>
  <object id="1469" gid="980" x="3844.03" y="1734.51" width="146.667" height="64"/>
  <object id="1470" gid="980" x="3990.7" y="1734.51" width="146.667" height="64"/>
  <object id="1471" gid="980" x="4446.69" y="1737.18" width="146.667" height="64"/>
  <object id="1472" gid="980" x="4593.36" y="1737.18" width="146.667" height="64"/>
  <object id="1473" gid="980" x="5307.36" y="1732.05" width="146.667" height="64"/>
  <object id="1474" gid="980" x="5869.36" y="2756.05" width="146.667" height="64"/>
  <object id="1475" gid="980" x="5584.36" y="2756.55" width="146.667" height="64"/>
  <object id="1476" gid="980" x="5309.86" y="2756.05" width="49.667" height="64"/>
  <object id="1477" gid="980" x="6160.86" y="2756.05" width="49.667" height="64"/>
  <object id="1478" gid="980" x="5726.36" y="2756.55" width="146.667" height="64"/>
  <object id="1479" gid="980" x="5597.36" y="1732.05" width="178.667" height="64"/>
  <object id="1480" gid="980" x="6167.36" y="1734.05" width="42.667" height="64"/>
  <object id="1481" gid="980" x="5454.03" y="1732.05" width="146.667" height="64"/>
  <object id="1482" gid="254" x="5335.94" y="3735.2" width="828" height="698.333"/>
  <object id="1483" gid="980" x="5309.61" y="3774.03" width="146.667" height="64"/>
  <object id="1484" gid="980" x="5456.28" y="3774.03" width="146.667" height="64"/>
  <object id="1485" gid="980" x="5912.27" y="3776.7" width="146.667" height="64"/>
  <object id="1486" gid="980" x="6058.94" y="3776.7" width="146.667" height="64"/>
  <object id="1488" gid="2147483901" x="4127.26" y="2687.39" width="606.273" height="690.182"/>
  <object id="1489" gid="2147483917" x="3825.67" y="2745.02" width="347.515" height="382.848"/>
  <object id="1490" gid="2147483916" x="3845.6" y="2434.36" width="314.667" height="354.364"/>
  <object id="1491" gid="2147484628" x="4595.42" y="2760.11" width="146.667" height="64"/>
  <object id="1492" gid="2147484628" x="4273.42" y="2760.11" width="178.667" height="64"/>
  <object id="1493" gid="2147484628" x="3839.42" y="2762.11" width="42.667" height="64"/>
  <object id="1494" gid="2147484628" x="4448.75" y="2760.11" width="146.667" height="64"/>
  <object id="1518" gid="980" x="1479.33" y="3222" width="164" height="64"/>
  <object id="1519" gid="980" x="1643.33" y="3222" width="146.667" height="64"/>
  <object id="1520" gid="980" x="898.013" y="2139.69" width="146.667" height="64"/>
  <object id="1521" gid="980" x="1191.35" y="2139.69" width="146.667" height="64"/>
  <object id="1522" gid="980" x="1044.69" y="2139.69" width="146.667" height="64"/>
  <object id="1523" gid="980" x="1338.02" y="2139.69" width="146.667" height="64"/>
  <object id="1524" gid="980" x="1481.99" y="2140.31" width="164" height="64"/>
  <object id="1525" gid="980" x="1645.99" y="2140.31" width="146.667" height="64"/>
  <object id="1526" gid="980" x="892.678" y="1189.02" width="146.667" height="64"/>
  <object id="1527" gid="980" x="1186.01" y="1189.02" width="146.667" height="64"/>
  <object id="1528" gid="980" x="1039.35" y="1189.02" width="146.667" height="64"/>
  <object id="1529" gid="980" x="1332.68" y="1189.02" width="146.667" height="64"/>
  <object id="1530" gid="980" x="1476.65" y="1189.64" width="164" height="64"/>
  <object id="1531" gid="980" x="1640.65" y="1189.64" width="146.667" height="64"/>
  <object id="1532" gid="980" x="2367.35" y="1183.69" width="146.667" height="64"/>
  <object id="1533" gid="980" x="2660.68" y="1183.69" width="146.667" height="64"/>
  <object id="1534" gid="980" x="2514.02" y="1183.69" width="146.667" height="64"/>
  <object id="1535" gid="980" x="2807.35" y="1183.69" width="146.667" height="64"/>
  <object id="1536" gid="980" x="2951.32" y="1184.31" width="164" height="64"/>
  <object id="1537" gid="980" x="3115.32" y="1184.31" width="146.667" height="64"/>
  <object id="1569" gid="270" x="2389.67" y="2668.91" width="872.182" height="661.06"/>
  <object id="1570" gid="980" x="2863.03" y="2758.91" width="183.031" height="64"/>
  <object id="1572" gid="980" x="3214.48" y="2754" width="53.6977" height="64"/>
  <object id="1574" gid="271" x="1679.79" y="1676.48" width="143" height="226"/>
  <object id="1575" gid="271" x="947.833" y="2589" width="193" height="244"/>
  <object id="1576" gid="271" x="1649.5" y="3762" width="197" height="250"/>
  <object id="1577" gid="2147483919" x="831.5" y="3463" width="197" height="250"/>
  <object id="1578" gid="271" x="3877.5" y="3687" width="197" height="250"/>
  <object id="1580" gid="271" x="5293.5" y="3747" width="197" height="250"/>
  <object id="1582" gid="2147483919" x="6019.5" y="3751" width="197" height="250"/>
  <object id="1585" gid="2147483919" x="6009.5" y="2269" width="190.939" height="250"/>
  <object id="1604" gid="2147483919" x="4577.26" y="1708.33" width="190.939" height="250"/>
  <object id="1606" gid="271" x="2801.23" y="1650.64" width="143" height="226"/>
  <object id="1607" gid="264" x="4010.7" y="3648.39" width="203" height="90"/>
  <object id="1609" gid="2147483912" x="4231.7" y="3717.39" width="203" height="90"/>
  <object id="1611" gid="264" x="4410.5" y="3786" width="203" height="90"/>
  <object id="1612" gid="265" x="3918.67" y="3728" width="201.333" height="185.333"/>
  <object id="1614" gid="2147483913" x="4244" y="3685.33" width="201.333" height="185.333"/>
  <object id="1615" gid="264" x="3775.28" y="2194.2" width="203" height="90"/>
  <object id="1616" gid="2147483912" x="4032.28" y="2759.2" width="203" height="90"/>
  <object id="1617" gid="264" x="4373.75" y="2723.81" width="203" height="90"/>
  <object id="1618" gid="265" x="4139.25" y="2753.81" width="201.333" height="185.333"/>
  <object id="1619" gid="2147483913" x="4584.58" y="2731.14" width="201.333" height="185.333"/>
  <object id="1625" gid="264" x="4327.28" y="1712.86" width="203" height="90"/>
  <object id="1626" gid="2147483912" x="3826.95" y="1713.86" width="203" height="90"/>
  <object id="1627" gid="264" x="4608.41" y="1586.47" width="203" height="90"/>
  <object id="1628" gid="265" x="4041.92" y="1724.47" width="201.333" height="185.333"/>
  <object id="1629" gid="2147483913" x="4400.58" y="1725.8" width="201.333" height="185.333"/>
  <object id="1633" gid="2147483913" x="4575.25" y="1340.47" width="201.333" height="185.333"/>
  <object id="1630" gid="264" x="3769.17" y="1295" width="203" height="90"/>
  <object id="1634" gid="265" x="3784.67" y="1586" width="201.333" height="185.333"/>
  <object id="1642" gid="264" x="5811.74" y="3748.46" width="203" height="90"/>
  <object id="1643" gid="2147483912" x="5311.41" y="3749.46" width="203" height="90"/>
  <object id="1644" gid="265" x="5526.38" y="3760.07" width="201.333" height="185.333"/>
  <object id="1645" gid="2147483913" x="5885.04" y="3761.4" width="201.333" height="185.333"/>
  <object id="1646" gid="2147483913" x="6059.71" y="3376.07" width="201.333" height="185.333"/>
  <object id="1647" gid="264" x="5253.63" y="3330.6" width="203" height="90"/>
  <object id="1648" gid="265" x="5269.13" y="3621.6" width="201.333" height="185.333"/>
  <object id="1649" gid="264" x="5870.4" y="2251.13" width="203" height="90"/>
  <object id="1650" gid="2147483912" x="5695.41" y="2221.46" width="203" height="90"/>
  <object id="1651" gid="265" x="5935.71" y="2208.07" width="201.333" height="185.333"/>
  <object id="1652" gid="2147483913" x="5586.37" y="2309.4" width="201.333" height="185.333"/>
  <object id="1653" gid="2147483913" x="5901.04" y="2754.74" width="201.333" height="185.333"/>
  <object id="1654" gid="264" x="5341.63" y="2526.6" width="203" height="90"/>
  <object id="1655" gid="265" x="5271.13" y="2475.6" width="201.333" height="185.333"/>
  <object id="1656" gid="264" x="1412.4" y="3751.79" width="203" height="90"/>
  <object id="1657" gid="2147483912" x="912.073" y="3752.79" width="203" height="90"/>
  <object id="1658" gid="265" x="1127.04" y="3763.4" width="201.333" height="185.333"/>
  <object id="1659" gid="2147483913" x="1485.7" y="3764.73" width="201.333" height="185.333"/>
  <object id="1660" gid="2147483913" x="1660.37" y="3379.4" width="201.333" height="185.333"/>
  <object id="1661" gid="264" x="854.293" y="3333.93" width="203" height="90"/>
  <object id="1662" gid="265" x="869.793" y="3624.93" width="201.333" height="185.333"/>
  <object id="1663" gid="264" x="2732.4" y="3779.79" width="203" height="90"/>
  <object id="1664" gid="2147483912" x="2830.07" y="3282.79" width="203" height="90"/>
  <object id="1665" gid="265" x="2285.04" y="3739.4" width="201.333" height="185.333"/>
  <object id="1666" gid="2147483913" x="2735.7" y="3812.73" width="201.333" height="185.333"/>
  <object id="1667" gid="2147483913" x="2868.37" y="3539.4" width="201.333" height="185.333"/>
  <object id="1668" gid="264" x="2346.29" y="3779.93" width="203" height="90"/>
  <object id="1669" gid="265" x="2293.79" y="3464.93" width="201.333" height="185.333"/>
  <object id="1670" gid="264" x="2498.4" y="2739.79" width="203" height="90"/>
  <object id="1671" gid="2147483912" x="3028.07" y="2752.79" width="203" height="90"/>
  <object id="1672" gid="265" x="2329.04" y="2735.4" width="201.333" height="185.333"/>
  <object id="1673" gid="2147483913" x="2771.7" y="2758.73" width="201.333" height="185.333"/>
  <object id="1674" gid="2147483913" x="3122.37" y="2691.4" width="201.333" height="185.333"/>
  <object id="1675" gid="264" x="2334.29" y="2545.93" width="203" height="90"/>
  <object id="1676" gid="265" x="2999.79" y="2618.93" width="201.333" height="185.333"/>
  <object id="1677" gid="265" x="2285.33" y="2339.33" width="201.333" height="185.333"/>
  <object id="1679" gid="264" x="2365.35" y="1724.29" width="203" height="90"/>
  <object id="1680" gid="2147483912" x="2981.02" y="1719.29" width="203" height="90"/>
  <object id="1681" gid="2147483913" x="2724.65" y="1725.23" width="201.333" height="185.333"/>
  <object id="1682" gid="2147483913" x="3075.32" y="1657.9" width="201.333" height="185.333"/>
  <object id="1683" gid="265" x="2952.74" y="1585.43" width="201.333" height="185.333"/>
  <object id="1684" gid="264" x="1503.35" y="1526.29" width="203" height="90"/>
  <object id="1685" gid="2147483912" x="1481.02" y="1701.29" width="203" height="90"/>
  <object id="1686" gid="2147483913" x="1276.65" y="1725.23" width="201.333" height="185.333"/>
  <object id="1687" gid="2147483913" x="1547.32" y="1683.9" width="201.333" height="185.333"/>
  <object id="1688" gid="265" x="1424.74" y="1611.43" width="201.333" height="185.333"/>
  <object id="1700" gid="980" x="3835.73" y="3772.15" width="146.667" height="64"/>
  <object id="1701" gid="980" x="4275.06" y="3773.48" width="146.667" height="64"/>
  <object id="1702" gid="980" x="3982.39" y="3772.15" width="146.667" height="64"/>
  <object id="1703" gid="980" x="4678.39" y="3772.15" width="58.667" height="64"/>
  <object id="1704" gid="980" x="3844.41" y="1177.85" width="146.667" height="64"/>
  <object id="1705" gid="980" x="4137.74" y="1177.85" width="146.667" height="64"/>
  <object id="1706" gid="980" x="3991.08" y="1177.85" width="146.667" height="64"/>
  <object id="1707" gid="980" x="4284.41" y="1177.85" width="146.667" height="64"/>
  <object id="1708" gid="980" x="4428.38" y="1178.47" width="164" height="64"/>
  <object id="1709" gid="980" x="4592.38" y="1178.47" width="146.667" height="64"/>
  <object id="1710" gid="980" x="3839.07" y="3240.52" width="146.667" height="64"/>
  <object id="1711" gid="980" x="4132.41" y="3240.52" width="146.667" height="64"/>
  <object id="1712" gid="980" x="3985.75" y="3240.52" width="146.667" height="64"/>
  <object id="1713" gid="980" x="4279.08" y="3240.52" width="146.667" height="64"/>
  <object id="1714" gid="980" x="4423.05" y="3241.14" width="164" height="64"/>
  <object id="1715" gid="980" x="4587.05" y="3241.14" width="146.667" height="64"/>
  <object id="1716" gid="980" x="2371.07" y="3223.19" width="146.667" height="64"/>
  <object id="1717" gid="980" x="2664.41" y="3223.19" width="146.667" height="64"/>
  <object id="1718" gid="980" x="2517.75" y="3223.19" width="146.667" height="64"/>
  <object id="1719" gid="980" x="2811.08" y="3223.19" width="146.667" height="64"/>
  <object id="1720" gid="980" x="2955.05" y="3223.81" width="164" height="64"/>
  <object id="1721" gid="980" x="3119.05" y="3223.81" width="146.667" height="64"/>
  <object id="1722" gid="980" x="2368.74" y="2121.52" width="146.667" height="64"/>
  <object id="1723" gid="980" x="2662.07" y="2121.52" width="146.667" height="64"/>
  <object id="1724" gid="980" x="2515.41" y="2121.52" width="146.667" height="64"/>
  <object id="1725" gid="980" x="2808.74" y="2121.52" width="146.667" height="64"/>
  <object id="1726" gid="980" x="2952.71" y="2122.14" width="164" height="64"/>
  <object id="1727" gid="980" x="3116.71" y="2122.14" width="146.667" height="64"/>
  <object id="1728" gid="980" x="897.743" y="1184.52" width="146.667" height="64"/>
  <object id="1729" gid="980" x="1191.07" y="1184.52" width="146.667" height="64"/>
  <object id="1730" gid="980" x="1044.41" y="1184.52" width="146.667" height="64"/>
  <object id="1731" gid="980" x="1337.74" y="1184.52" width="146.667" height="64"/>
  <object id="1732" gid="980" x="1481.71" y="1185.13" width="164" height="64"/>
  <object id="1733" gid="980" x="1645.71" y="1185.13" width="146.667" height="64"/>
  <object id="1734" gid="980" x="5315.74" y="1170.52" width="146.667" height="64"/>
  <object id="1735" gid="980" x="5609.07" y="1170.52" width="146.667" height="64"/>
  <object id="1736" gid="980" x="5462.41" y="1170.52" width="146.667" height="64"/>
  <object id="1737" gid="980" x="5755.74" y="1170.52" width="146.667" height="64"/>
  <object id="1738" gid="980" x="5899.71" y="1171.13" width="164" height="64"/>
  <object id="1739" gid="980" x="6063.71" y="1171.13" width="146.667" height="64"/>
  <object id="1740" gid="980" x="5315.74" y="2124.52" width="146.667" height="64"/>
  <object id="1741" gid="980" x="5609.07" y="2124.52" width="146.667" height="64"/>
  <object id="1742" gid="980" x="5462.41" y="2124.52" width="146.667" height="64"/>
  <object id="1743" gid="980" x="5755.74" y="2124.52" width="146.667" height="64"/>
  <object id="1744" gid="980" x="5899.71" y="2125.14" width="164" height="64"/>
  <object id="1745" gid="980" x="6063.71" y="2125.14" width="146.667" height="64"/>
  <object id="1746" gid="980" x="3844.41" y="2131.19" width="146.667" height="64"/>
  <object id="1747" gid="980" x="4137.74" y="2131.19" width="146.667" height="64"/>
  <object id="1748" gid="980" x="3991.08" y="2131.19" width="146.667" height="64"/>
  <object id="1749" gid="980" x="4284.41" y="2131.19" width="146.667" height="64"/>
  <object id="1750" gid="980" x="4428.38" y="2131.81" width="164" height="64"/>
  <object id="1751" gid="980" x="4592.38" y="2131.81" width="146.667" height="64"/>
  <object id="1752" gid="2147483912" x="1532.71" y="2717.11" width="203" height="90"/>
  <object id="1753" gid="264" x="1003.04" y="2730.11" width="203" height="90"/>
  <object id="1754" gid="265" x="1261.08" y="2736.06" width="201.333" height="185.333"/>
  <object id="1755" gid="265" x="910.411" y="2668.73" width="201.333" height="185.333"/>
  <object id="1756" gid="2147483913" x="1032.99" y="2596.26" width="201.333" height="185.333"/>
  <object id="1757" gid="264" x="1314.23" y="2597.15" width="203" height="90"/>
  <object id="1758" gid="980" x="5310.68" y="3233.69" width="146.667" height="64"/>
  <object id="1759" gid="980" x="5604.01" y="3233.69" width="146.667" height="64"/>
  <object id="1760" gid="980" x="5457.35" y="3233.69" width="146.667" height="64"/>
  <object id="1761" gid="980" x="5750.68" y="3233.69" width="146.667" height="64"/>
  <object id="1762" gid="980" x="5894.65" y="3234.31" width="164" height="64"/>
  <object id="1763" gid="980" x="6058.65" y="3234.31" width="146.667" height="64"/>
  <object id="1767" gid="263" x="410.667" y="1769" width="42.3333" height="48"/>
  <object id="1768" gid="263" x="413.5" y="1821.33" width="42.3333" height="48"/>
  <object id="1769" gid="263" x="422.75" y="1871.84" width="42.3333" height="48"/>
  <object id="1770" gid="263" x="425.583" y="1924.16" width="42.3333" height="48"/>
  <object id="1771" gid="263" x="422.709" y="1967.75" width="42.3333" height="48"/>
  <object id="1772" gid="263" x="422.875" y="2027.42" width="42.3333" height="48"/>
  <object id="1773" gid="263" x="418.792" y="2076.59" width="42.3333" height="48"/>
  <object id="1774" gid="263" x="404.958" y="2120.91" width="42.3333" height="48"/>
  <object id="1775" gid="263" x="419.23" y="2823.05" width="42.3333" height="48"/>
  <object id="1776" gid="263" x="422.063" y="2875.38" width="42.3333" height="48"/>
  <object id="1777" gid="263" x="431.313" y="2925.89" width="42.3333" height="48"/>
  <object id="1778" gid="263" x="434.146" y="2978.2" width="42.3333" height="48"/>
  <object id="1779" gid="263" x="431.272" y="3021.8" width="42.3333" height="48"/>
  <object id="1780" gid="263" x="431.438" y="3081.47" width="42.3333" height="48"/>
  <object id="1781" gid="263" x="427.355" y="3130.64" width="42.3333" height="48"/>
  <object id="1782" gid="263" x="413.521" y="3174.95" width="42.3333" height="48"/>
  <object id="1784" gid="261" x="2360.33" y="2762" width="27.6667" height="71.3333"/>
  <object id="1785" gid="262" x="1784.67" y="2762" width="24.3333" height="70.3333"/>
  <object id="1786" gid="259" x="1784.67" y="3219" width="38.3333" height="90"/>
  <object id="1787" gid="260" x="2345" y="3230.67" width="28.6667" height="81.3333"/>
  <object id="1792" gid="261" x="2363.33" y="1739.67" width="27.6667" height="71.3333"/>
  <object id="1793" gid="262" x="1787.67" y="1739.67" width="24.3333" height="70.3333"/>
  <object id="1794" gid="259" x="1787.67" y="2144.67" width="38.3333" height="90"/>
  <object id="1795" gid="260" x="2348" y="2135" width="28.6667" height="81.3333"/>
  <object id="1796" gid="261" x="2351.33" y="3791.67" width="27.6667" height="71.3333"/>
  <object id="1797" gid="262" x="1775.67" y="3791.67" width="24.3333" height="70.3333"/>
  <object id="1800" gid="261" x="3841" y="2764.66" width="27.6667" height="71.3333"/>
  <object id="1801" gid="262" x="3265.34" y="2764.66" width="24.3333" height="70.3333"/>
  <object id="1802" gid="259" x="3265.34" y="3221.66" width="38.3333" height="90"/>
  <object id="1803" gid="260" x="3825.67" y="3233.33" width="28.6667" height="81.3333"/>
  <object id="1804" gid="261" x="3844" y="1742.33" width="27.6667" height="71.3333"/>
  <object id="1805" gid="262" x="3268.34" y="1742.33" width="24.3333" height="70.3333"/>
  <object id="1806" gid="259" x="3268.34" y="2147.33" width="38.3333" height="90"/>
  <object id="1807" gid="260" x="3828.67" y="2137.66" width="28.6667" height="81.3333"/>
  <object id="1808" gid="261" x="3832" y="3794.33" width="27.6667" height="71.3333"/>
  <object id="1809" gid="262" x="3256.34" y="3794.33" width="24.3333" height="70.3333"/>
  <object id="1810" gid="261" x="5305" y="2764.66" width="27.6667" height="71.3333"/>
  <object id="1811" gid="262" x="4729.34" y="2764.66" width="24.3333" height="70.3333"/>
  <object id="1812" gid="259" x="4729.34" y="3221.66" width="38.3333" height="90"/>
  <object id="1813" gid="260" x="5289.67" y="3233.33" width="28.6667" height="81.3333"/>
  <object id="1814" gid="261" x="5308" y="1742.33" width="27.6667" height="71.3333"/>
  <object id="1815" gid="262" x="4732.34" y="1742.33" width="24.3333" height="70.3333"/>
  <object id="1816" gid="259" x="4732.34" y="2147.33" width="38.3333" height="90"/>
  <object id="1817" gid="260" x="5292.67" y="2137.66" width="28.6667" height="81.3333"/>
  <object id="1818" gid="261" x="5296" y="3794.33" width="27.6667" height="71.3333"/>
  <object id="1819" gid="262" x="4720.34" y="3794.33" width="24.3333" height="70.3333"/>
  <object id="1820" gid="250" x="3440" y="313" width="257" height="337"/>
  <object id="1821" gid="250" x="1959.5" y="407.5" width="257" height="337"/>
  <object id="1822" gid="250" x="1699.5" y="519.5" width="257" height="337"/>
  <object id="1823" gid="250" x="2771.5" y="347.5" width="257" height="337"/>
  <object id="1824" gid="2147483898" x="2451.5" y="363.5" width="257" height="337"/>
  <object id="1825" gid="2147483919" x="2274" y="418" width="145" height="435"/>
  <object id="1827" gid="271" x="3235.5" y="290.5" width="145" height="435"/>
  <object id="1839" gid="271" x="4107.5" y="458.5" width="145" height="355"/>
  <object id="1840" gid="250" x="4227.5" y="463.5" width="257" height="337"/>
  <object id="1841" gid="250" x="5699.5" y="587.5" width="257" height="337"/>
  <object id="1842" gid="250" x="6912" y="576" width="257" height="337"/>
  <object id="1843" gid="271" x="6848" y="960" width="145" height="355"/>
  <object id="1844" gid="250" x="6367.5" y="587.5" width="257" height="337"/>
  <object id="1845" gid="271" x="6091.5" y="594.5" width="145" height="355"/>
  <object id="1846" gid="2147483919" x="6738.77" y="1327.05" width="145" height="355"/>
  <object id="1847" gid="2147483919" x="6679.5" y="592.318" width="145" height="355"/>
  <object id="1848" gid="250" x="7147.28" y="1922.21" width="253.767" height="332.761" rotation="359.773"/>
  <object id="1849" gid="271" x="7388.65" y="2199.35" width="143.176" height="350.534" rotation="356.286"/>
  <object id="1850" gid="2147483898" x="6841.15" y="1547.78" width="253.767" height="332.761" rotation="-358.634"/>
  <object id="1851" gid="271" x="7388.56" y="1790.09" width="143.176" height="350.534" rotation="2.33603"/>
  <object id="1852" gid="2147483919" x="6970.15" y="1898.41" width="143.176" height="350.534" rotation="359.915"/>
  <object id="1853" gid="271" x="7276.9" y="2367.16" width="143.176" height="350.534" rotation="356.286"/>
  <object id="1854" gid="2147483898" x="7044.53" y="2256.86" width="253.767" height="332.761" rotation="-359.773"/>
  <object id="1855" gid="2147483919" x="6960.99" y="2521.63" width="143.176" height="350.534" rotation="-358.552"/>
  <object id="1856" gid="250" x="7274.43" y="2580.08" width="253.767" height="332.761" rotation="359.773"/>
  <object id="1857" gid="2147483898" x="7106.45" y="2791.2" width="253.767" height="332.761" rotation="-359.773"/>
  <object id="1859" gid="2147483898" x="7354.93" y="3063.92" width="253.767" height="332.761" rotation="-359.773"/>
  <object id="1860" gid="2147483919" x="7055.68" y="1364.13" width="143.176" height="350.534" rotation="-358.552"/>
  <object id="1861" gid="271" x="6955.45" y="2895.02" width="143.176" height="350.534" rotation="358.552"/>
  <object id="1863" gid="250" x="6768.37" y="2664.93" width="253.767" height="332.761" rotation="359.773"/>
  <object id="1864" gid="264" x="6630" y="1996" width="320" height="160"/>
  <object id="1866" gid="264" x="7148" y="3048" width="320" height="160"/>
  <object id="1867" gid="264" x="6820" y="2874" width="320" height="160"/>
  <object id="1868" gid="264" x="7010" y="2268" width="320" height="160"/>
  <object id="1869" gid="264" x="6710" y="1416" width="320" height="160"/>
  <object id="1870" gid="264" x="6809.33" y="1016" width="248" height="89.3333"/>
  <object id="1871" gid="264" x="5984" y="642.667" width="285.333" height="85.3333"/>
  <object id="1872" gid="264" x="5667.9" y="579.482" width="225.333" height="82.6667" rotation="4.27716"/>
  <object id="1873" gid="264" x="5805.97" y="616.167" width="238.667" height="89.3333" rotation="353.359"/>
  <object id="1874" gid="264" x="3100" y="340" width="262.667" height="76"/>
  <object id="1875" gid="264" x="3384" y="293.333" width="320" height="86.6667"/>
  <object id="1877" gid="264" x="3128.67" y="182" width="262.667" height="76"/>
  <object id="1878" gid="264" x="2866" y="403.333" width="262.667" height="76"/>
  <object id="1879" gid="264" x="2811.33" y="302" width="262.667" height="76"/>
  <object id="1880" gid="264" x="2723.33" y="350" width="262.667" height="76"/>
  <object id="1881" gid="264" x="2620.67" y="239.333" width="262.667" height="76"/>
  <object id="1882" gid="264" x="2227.33" y="242" width="262.667" height="61.3333"/>
  <object id="1883" gid="264" x="2476.67" y="312.667" width="262.667" height="76"/>
  <object id="1884" gid="264" x="2223.33" y="435.333" width="262.667" height="76"/>
  <object id="1885" gid="264" x="2506.04" y="392.809" width="262.667" height="76" rotation="359.938"/>
  <object id="1886" gid="264" x="2383.33" y="355.333" width="262.667" height="76"/>
  <object id="1887" gid="264" x="2002" y="367.333" width="262.667" height="76"/>
  <object id="1888" gid="264" x="1968.67" y="415.333" width="262.667" height="76"/>
  <object id="1889" gid="264" x="1674" y="531.333" width="262.667" height="76"/>
  <object id="1890" gid="264" x="1776.67" y="487.333" width="262.667" height="76"/>
  <object id="1891" gid="264" x="1704.67" y="654" width="262.667" height="76"/>
  <object id="1892" gid="264" x="1184.67" y="614" width="262.667" height="76"/>
  <object id="1893" gid="264" x="774" y="667.333" width="262.667" height="76"/>
  <object id="1899" gid="264" x="363.333" y="628.667" width="262.667" height="76"/>
  <object id="1900" gid="250" x="161.5" y="849.5" width="257" height="337"/>
  <object id="1901" gid="2147483919" x="25.5" y="742.5" width="145" height="435"/>
  <object id="1902" gid="2147483898" x="-64.5" y="1175.5" width="257" height="337"/>
  <object id="1903" gid="264" x="152.666" y="1034" width="262.667" height="76"/>
  <object id="1904" gid="264" x="-63.3335" y="1176" width="262.667" height="76"/>
  <object id="1905" gid="264" x="152.666" y="860" width="286.667" height="76"/>
  <object id="1906" gid="264" x="48.6665" y="734" width="262.667" height="76"/>
  <object id="1907" gid="264" x="-29.3335" y="774" width="262.667" height="76"/>
  <object id="1908" gid="250" x="176.833" y="1260.83" width="257" height="337"/>
  <object id="1909" gid="264" x="182.666" y="1170" width="262.667" height="76"/>
  <object id="1910" gid="271" x="173.5" y="1300.5" width="145" height="435"/>
  <object id="1911" gid="264" x="-95.3335" y="1022" width="262.667" height="76"/>
  <object id="1912" gid="264" x="122.667" y="1310" width="262.667" height="76"/>
  <object id="1913" gid="2147483898" x="-6.5" y="1439.5" width="257" height="337"/>
  <object id="1914" gid="264" x="-33.3335" y="1440" width="262.667" height="76"/>
  <object id="1915" gid="264" x="3788.67" y="310" width="262.667" height="76"/>
  <object id="1916" gid="2147483898" x="2287.6" y="693.25" width="257" height="337"/>
  <object id="1917" gid="250" x="2033.6" y="629.25" width="257" height="337"/>
  <object id="1918" gid="271" x="3705.1" y="649.75" width="145" height="435"/>
  <object id="1919" gid="2147483912" x="2256.11" y="701.083" width="262.667" height="76"/>
  <object id="1920" gid="2147483912" x="1973.4" y="658.275" width="262.667" height="76" rotation="-359.938"/>
  <object id="1921" gid="2147483898" x="3373.5" y="585.5" width="257" height="337"/>
  <object id="1922" gid="2147483919" x="3173.5" y="496.5" width="145" height="435"/>
  <object id="1923" gid="2147483912" x="3017.33" y="552" width="262.667" height="76"/>
  <object id="1924" gid="271" x="3039.3" y="653.125" width="145" height="435"/>
  <object id="1925" gid="2147483898" x="2749.7" y="666.875" width="257" height="337"/>
  <object id="1926" gid="2147483919" x="2557.7" y="671.875" width="145" height="435"/>
  <object id="1927" gid="2147483898" x="-113" y="292.563" width="257" height="337"/>
  <object id="1928" gid="2147483898" x="1367.5" y="387.063" width="257" height="337"/>
  <object id="1929" gid="2147483898" x="1627.5" y="499.063" width="257" height="337"/>
  <object id="1930" gid="2147483898" x="555.5" y="327.063" width="257" height="337"/>
  <object id="1931" gid="250" x="875.5" y="343.063" width="257" height="337"/>
  <object id="1932" gid="271" x="1165" y="397.563" width="145" height="435"/>
  <object id="1933" gid="2147483919" x="203.5" y="270.063" width="145" height="435"/>
  <object id="1934" gid="2147483919" x="-668.5" y="438.063" width="145" height="355"/>
  <object id="1935" gid="2147483912" x="221.333" y="319.563" width="262.667" height="76"/>
  <object id="1936" gid="2147483912" x="-120" y="272.896" width="320" height="86.6667"/>
  <object id="1937" gid="2147483912" x="192.663" y="161.563" width="262.667" height="76"/>
  <object id="1938" gid="2147483912" x="455.333" y="382.896" width="262.667" height="76"/>
  <object id="1939" gid="2147483912" x="510.003" y="281.563" width="262.667" height="76"/>
  <object id="1940" gid="2147483912" x="598.003" y="329.563" width="262.667" height="76"/>
  <object id="1941" gid="2147483912" x="700.663" y="218.895" width="262.667" height="76"/>
  <object id="1942" gid="2147483912" x="1094" y="221.563" width="262.667" height="61.3333"/>
  <object id="1943" gid="2147483912" x="844.663" y="292.229" width="262.667" height="76"/>
  <object id="1944" gid="2147483912" x="1098" y="414.896" width="262.667" height="76"/>
  <object id="1945" gid="2147483912" x="815.293" y="372.087" width="262.667" height="76" rotation="-359.938"/>
  <object id="1946" gid="2147483912" x="938.003" y="334.896" width="262.667" height="76"/>
  <object id="1947" gid="2147483912" x="1319.33" y="346.896" width="262.667" height="76"/>
  <object id="1948" gid="2147483912" x="1352.66" y="394.896" width="262.667" height="76"/>
  <object id="1949" gid="2147483912" x="1544.66" y="466.896" width="262.667" height="76"/>
  <object id="1950" gid="2147483912" x="1616.66" y="633.563" width="262.667" height="76"/>
  <object id="1951" gid="2147483912" x="-467.337" y="289.563" width="262.667" height="76"/>
  <object id="1952" gid="250" x="1039.4" y="672.813" width="257" height="337"/>
  <object id="1953" gid="2147483898" x="1293.4" y="608.813" width="257" height="337"/>
  <object id="1954" gid="2147483919" x="-266.1" y="629.313" width="145" height="435"/>
  <object id="1955" gid="264" x="1347.93" y="638.122" width="262.667" height="76" rotation="359.938"/>
  <object id="1956" gid="250" x="-46.5" y="565.063" width="257" height="337"/>
  <object id="1957" gid="271" x="265.5" y="476.063" width="145" height="435"/>
  <object id="1958" gid="264" x="304.003" y="531.563" width="262.667" height="76"/>
  <object id="1959" gid="2147483919" x="399.7" y="632.688" width="145" height="435"/>
  <object id="1960" gid="250" x="577.3" y="646.438" width="257" height="337"/>
  <object id="1961" gid="271" x="881.3" y="651.438" width="145" height="435"/>
  <object id="1997" gid="250" x="1748" y="4324.56" width="257" height="337"/>
  <object id="1998" gid="250" x="267.5" y="4419.06" width="257" height="337"/>
  <object id="1999" gid="250" x="7.5" y="4531.06" width="257" height="337"/>
  <object id="2000" gid="250" x="1079.5" y="4359.06" width="257" height="337"/>
  <object id="2001" gid="2147483898" x="759.5" y="4375.06" width="257" height="337"/>
  <object id="2002" gid="2147483919" x="582" y="4429.56" width="145" height="435"/>
  <object id="2003" gid="271" x="1543.5" y="4302.06" width="145" height="435"/>
  <object id="2004" gid="271" x="2415.5" y="4470.06" width="145" height="355"/>
  <object id="2005" gid="264" x="1408" y="4351.56" width="262.667" height="76"/>
  <object id="2006" gid="264" x="1692" y="4304.9" width="320" height="86.6667"/>
  <object id="2007" gid="264" x="1436.67" y="4193.56" width="262.667" height="76"/>
  <object id="2008" gid="264" x="1174" y="4414.9" width="262.667" height="76"/>
  <object id="2009" gid="264" x="1119.33" y="4313.56" width="262.667" height="76"/>
  <object id="2010" gid="264" x="1031.33" y="4361.56" width="262.667" height="76"/>
  <object id="2011" gid="264" x="928.67" y="4250.9" width="262.667" height="76"/>
  <object id="2012" gid="264" x="535.33" y="4253.56" width="262.667" height="61.3333"/>
  <object id="2013" gid="264" x="784.67" y="4324.23" width="262.667" height="76"/>
  <object id="2014" gid="264" x="531.33" y="4446.9" width="262.667" height="76"/>
  <object id="2015" gid="264" x="814.04" y="4404.37" width="262.667" height="76" rotation="359.938"/>
  <object id="2016" gid="264" x="691.33" y="4366.9" width="262.667" height="76"/>
  <object id="2017" gid="264" x="310" y="4378.9" width="262.667" height="76"/>
  <object id="2018" gid="264" x="276.67" y="4426.9" width="262.667" height="76"/>
  <object id="2019" gid="264" x="84.67" y="4498.9" width="262.667" height="76"/>
  <object id="2020" gid="264" x="12.67" y="4665.56" width="262.667" height="76"/>
  <object id="2021" gid="264" x="2096.67" y="4321.56" width="262.667" height="76"/>
  <object id="2022" gid="2147483898" x="595.6" y="4704.81" width="257" height="337"/>
  <object id="2023" gid="250" x="341.6" y="4640.81" width="257" height="337"/>
  <object id="2024" gid="271" x="2013.1" y="4661.31" width="145" height="435"/>
  <object id="2025" gid="2147483912" x="281.4" y="4669.84" width="262.667" height="76" rotation="-359.938"/>
  <object id="2026" gid="2147483898" x="1681.5" y="4597.06" width="257" height="337"/>
  <object id="2027" gid="2147483919" x="1481.5" y="4508.06" width="145" height="435"/>
  <object id="2028" gid="2147483912" x="1325.33" y="4563.56" width="262.667" height="76"/>
  <object id="2029" gid="271" x="1347.3" y="4664.69" width="145" height="435"/>
  <object id="2030" gid="2147483898" x="1057.7" y="4678.44" width="257" height="337"/>
  <object id="2031" gid="2147483919" x="865.7" y="4683.44" width="145" height="435"/>
  <object id="2032" gid="2147483898" x="3063" y="4348.56" width="257" height="337"/>
  <object id="2033" gid="2147483898" x="4543.5" y="4443.06" width="257" height="337"/>
  <object id="2034" gid="2147483898" x="4803.5" y="4555.06" width="257" height="337"/>
  <object id="2035" gid="2147483898" x="3731.5" y="4383.06" width="257" height="337"/>
  <object id="2036" gid="250" x="4051.5" y="4399.06" width="257" height="337"/>
  <object id="2037" gid="271" x="4341" y="4453.56" width="145" height="435"/>
  <object id="2038" gid="2147483919" x="3379.5" y="4326.06" width="145" height="435"/>
  <object id="2039" gid="2147483919" x="2507.5" y="4494.06" width="145" height="355"/>
  <object id="2040" gid="2147483912" x="3397.33" y="4375.56" width="262.667" height="76"/>
  <object id="2041" gid="2147483912" x="3056" y="4328.9" width="320" height="86.6667"/>
  <object id="2042" gid="2147483912" x="3368.66" y="4217.56" width="262.667" height="76"/>
  <object id="2043" gid="2147483912" x="3631.33" y="4438.9" width="262.667" height="76"/>
  <object id="2044" gid="2147483912" x="3686" y="4337.56" width="262.667" height="76"/>
  <object id="2045" gid="2147483912" x="3774" y="4385.56" width="262.667" height="76"/>
  <object id="2046" gid="2147483912" x="3876.66" y="4274.9" width="262.667" height="76"/>
  <object id="2047" gid="2147483912" x="4270" y="4277.56" width="262.667" height="61.3333"/>
  <object id="2048" gid="2147483912" x="4020.66" y="4348.23" width="262.667" height="76"/>
  <object id="2049" gid="2147483912" x="4274" y="4470.9" width="262.667" height="76"/>
  <object id="2050" gid="2147483912" x="3991.29" y="4428.09" width="262.667" height="76" rotation="-359.938"/>
  <object id="2051" gid="2147483912" x="4114" y="4390.9" width="262.667" height="76"/>
  <object id="2052" gid="2147483912" x="4495.33" y="4402.9" width="262.667" height="76"/>
  <object id="2053" gid="2147483912" x="4528.66" y="4450.9" width="262.667" height="76"/>
  <object id="2054" gid="2147483912" x="4720.66" y="4522.9" width="262.667" height="76"/>
  <object id="2055" gid="2147483912" x="4792.66" y="4689.56" width="262.667" height="76"/>
  <object id="2056" gid="2147483912" x="2708.66" y="4345.56" width="262.667" height="76"/>
  <object id="2057" gid="250" x="4215.4" y="4728.81" width="257" height="337"/>
  <object id="2058" gid="2147483898" x="4469.4" y="4664.81" width="257" height="337"/>
  <object id="2059" gid="2147483919" x="2909.9" y="4685.31" width="145" height="435"/>
  <object id="2060" gid="264" x="4523.93" y="4694.12" width="262.667" height="76" rotation="359.938"/>
  <object id="2061" gid="250" x="3129.5" y="4621.06" width="257" height="337"/>
  <object id="2062" gid="271" x="3441.5" y="4532.06" width="145" height="435"/>
  <object id="2063" gid="264" x="3480" y="4587.56" width="262.667" height="76"/>
  <object id="2064" gid="2147483919" x="3575.7" y="4688.69" width="145" height="435"/>
  <object id="2065" gid="250" x="3753.3" y="4702.44" width="257" height="337"/>
  <object id="2066" gid="271" x="4057.3" y="4707.44" width="145" height="435"/>
  <object id="2067" gid="250" x="6760" y="4292.56" width="257" height="337"/>
  <object id="2068" gid="250" x="5279.5" y="4387.06" width="257" height="337"/>
  <object id="2069" gid="250" x="5019.5" y="4499.06" width="257" height="337"/>
  <object id="2070" gid="250" x="6091.5" y="4327.06" width="257" height="337"/>
  <object id="2071" gid="2147483898" x="5771.5" y="4343.06" width="257" height="337"/>
  <object id="2072" gid="2147483919" x="5594" y="4397.56" width="145" height="435"/>
  <object id="2073" gid="271" x="6555.5" y="4270.06" width="145" height="435"/>
  <object id="2074" gid="271" x="7427.5" y="4438.06" width="145" height="355"/>
  <object id="2075" gid="264" x="6420" y="4319.56" width="262.667" height="76"/>
  <object id="2076" gid="264" x="6704" y="4272.9" width="320" height="86.6667"/>
  <object id="2077" gid="264" x="6448.67" y="4161.56" width="262.667" height="76"/>
  <object id="2078" gid="264" x="6186" y="4382.9" width="262.667" height="76"/>
  <object id="2079" gid="264" x="6131.33" y="4281.56" width="262.667" height="76"/>
  <object id="2080" gid="264" x="6043.33" y="4329.56" width="262.667" height="76"/>
  <object id="2081" gid="264" x="5940.67" y="4218.9" width="262.667" height="76"/>
  <object id="2082" gid="264" x="5547.33" y="4221.56" width="262.667" height="61.3333"/>
  <object id="2083" gid="264" x="5796.67" y="4292.23" width="262.667" height="76"/>
  <object id="2084" gid="264" x="5543.33" y="4414.9" width="262.667" height="76"/>
  <object id="2085" gid="264" x="5826.04" y="4372.37" width="262.667" height="76" rotation="359.938"/>
  <object id="2086" gid="264" x="5703.33" y="4334.9" width="262.667" height="76"/>
  <object id="2087" gid="264" x="5322" y="4346.9" width="262.667" height="76"/>
  <object id="2088" gid="264" x="5288.67" y="4394.9" width="262.667" height="76"/>
  <object id="2089" gid="264" x="5096.67" y="4466.9" width="262.667" height="76"/>
  <object id="2090" gid="264" x="5024.67" y="4633.56" width="262.667" height="76"/>
  <object id="2091" gid="264" x="7108.67" y="4289.56" width="262.667" height="76"/>
  <object id="2092" gid="2147483898" x="5607.6" y="4672.81" width="257" height="337"/>
  <object id="2093" gid="250" x="5353.6" y="4608.81" width="257" height="337"/>
  <object id="2094" gid="271" x="7025.1" y="4629.31" width="145" height="435"/>
  <object id="2095" gid="2147483912" x="5293.4" y="4637.84" width="262.667" height="76" rotation="-359.938"/>
  <object id="2096" gid="2147483898" x="6693.5" y="4565.06" width="257" height="337"/>
  <object id="2097" gid="2147483919" x="6493.5" y="4476.06" width="145" height="435"/>
  <object id="2098" gid="2147483912" x="6337.33" y="4531.56" width="262.667" height="76"/>
  <object id="2099" gid="271" x="6359.3" y="4632.69" width="145" height="435"/>
  <object id="2100" gid="2147483898" x="6069.7" y="4646.44" width="257" height="337"/>
  <object id="2101" gid="2147483919" x="5877.7" y="4651.44" width="145" height="435"/>
  <object id="2102" gid="271" x="7340.12" y="3149.33" width="143.176" height="350.534" rotation="356.286"/>
  <object id="2103" gid="271" x="7228.37" y="3317.14" width="143.176" height="350.534" rotation="356.286"/>
  <object id="2104" gid="2147483898" x="6996" y="3206.84" width="253.767" height="332.761" rotation="-359.773"/>
  <object id="2105" gid="2147483919" x="6912.46" y="3471.61" width="143.176" height="350.534" rotation="-358.552"/>
  <object id="2106" gid="250" x="7225.9" y="3530.06" width="253.767" height="332.761" rotation="359.773"/>
  <object id="2107" gid="2147483898" x="7057.92" y="3741.18" width="253.767" height="332.761" rotation="-359.773"/>
  <object id="2109" gid="2147483898" x="7306.4" y="4013.9" width="253.767" height="332.761" rotation="-359.773"/>
  <object id="2110" gid="271" x="6906.92" y="3845" width="143.176" height="350.534" rotation="358.552"/>
  <object id="2111" gid="250" x="6719.84" y="3614.91" width="253.767" height="332.761" rotation="359.773"/>
  <object id="2112" gid="264" x="7099.47" y="3997.98" width="320" height="160"/>
  <object id="2113" gid="264" x="6771.47" y="3823.98" width="320" height="160"/>
  <object id="2114" gid="264" x="6961.47" y="3217.98" width="320" height="160"/>
  <object id="2115" gid="2147483919" x="6732.41" y="2284.73" width="143.176" height="350.534" rotation="359.915"/>
  <object id="2116" gid="271" x="6673.89" y="2770.52" width="143.176" height="350.534" rotation="-359.915"/>
  <object id="2117" gid="2147483898" x="-44.035" y="3522.35" width="257" height="337"/>
  <object id="2118" gid="271" x="203.965" y="3415.35" width="145" height="435"/>
  <object id="2119" gid="250" x="181.965" y="3848.35" width="257" height="337"/>
  <object id="2120" gid="2147483912" x="-40.868" y="3706.85" width="262.667" height="76"/>
  <object id="2121" gid="2147483912" x="175.131" y="3848.85" width="262.667" height="76"/>
  <object id="2122" gid="2147483912" x="-64.868" y="3532.85" width="286.667" height="76"/>
  <object id="2123" gid="2147483912" x="63.1315" y="3406.85" width="262.667" height="76"/>
  <object id="2124" gid="2147483912" x="141.131" y="3446.85" width="262.667" height="76"/>
  <object id="2125" gid="2147483898" x="-59.368" y="3933.68" width="257" height="337"/>
  <object id="2126" gid="2147483912" x="-70.868" y="3842.85" width="262.667" height="76"/>
  <object id="2127" gid="2147483919" x="55.965" y="3973.35" width="145" height="435"/>
  <object id="2128" gid="2147483912" x="207.131" y="3694.85" width="262.667" height="76"/>
  <object id="2129" gid="2147483912" x="-10.869" y="3982.85" width="262.667" height="76"/>
  <object id="2130" gid="250" x="123.965" y="4112.35" width="257" height="337"/>
  <object id="2131" gid="2147483912" x="145.131" y="4112.85" width="262.667" height="76"/>
  <object id="2133" gid="250" x="174.914" y="2216.29" width="257" height="337"/>
  <object id="2135" gid="2147483898" x="-32.9044" y="2466.53" width="257" height="337"/>
  <object id="2136" gid="264" x="184.262" y="2325.03" width="262.667" height="76"/>
  <object id="2137" gid="264" x="-31.7379" y="2467.03" width="262.667" height="76"/>
  <object id="2138" gid="264" x="166.08" y="2226.79" width="286.667" height="76"/>
  <object id="2141" gid="250" x="208.429" y="2551.86" width="257" height="337"/>
  <object id="2142" gid="264" x="214.262" y="2461.03" width="262.667" height="76"/>
  <object id="2143" gid="271" x="250.55" y="2703.65" width="145" height="435"/>
  <object id="2144" gid="264" x="-63.7379" y="2313.03" width="262.667" height="76"/>
  <object id="2145" gid="264" x="154.263" y="2601.03" width="262.667" height="76"/>
  <object id="2146" gid="2147483898" x="25.0956" y="2730.53" width="257" height="337"/>
  <object id="2147" gid="264" x="-1.73788" y="2731.03" width="262.667" height="76"/>
  <object id="2153" gid="264" x="187.25" y="1548.75" width="262.667" height="76"/>
  <object id="2154" gid="271" x="282.084" y="1599.25" width="145" height="435"/>
  <object id="2155" gid="264" x="127.251" y="1688.75" width="262.667" height="76"/>
  <object id="2156" gid="2147483898" x="-27.9165" y="1696.25" width="257" height="337"/>
  <object id="2157" gid="2147483898" x="5262.6" y="670.205" width="257" height="337"/>
  <object id="2158" gid="2147483898" x="4050.1" y="658.705" width="257" height="337"/>
  <object id="2159" gid="2147483898" x="4594.6" y="670.205" width="257" height="337"/>
  <object id="2160" gid="2147483919" x="4982.6" y="677.205" width="145" height="355"/>
  <object id="2161" gid="271" x="4394.6" y="675.023" width="145" height="355"/>
 </objectgroup>
</map>
